;FLAVOR:Marlin
;TIME:15020
;Filament used: 21.3313m
;Layer height: 0.3
;MINX:31.134
;MINY:31.261
;MINZ:0.3
;MAXX:188.866
;MAXY:188.739
;MAXZ:18.9
;Generated with Cura_SteamEngine 4.4.1
M140 S60
M105
M190 S60
M104 S200
M105
M109 S200
M82 ;absolute extrusion mode
M201 X500.00 Y500.00 Z100.00 E5000.00 ;Setup machine max acceleration
M203 X500.00 Y500.00 Z10.00 E50.00 ;Setup machine max feedrate
M204 P500.00 R1000.00 T500.00 ;Setup Print/Retract/Travel acceleration
M205 X8.00 Y8.00 Z0.40 E5.00 ;Setup Jerk
M220 S100 ;Reset Feedrate
M221 S100 ;Reset Flowrate

G28 ;Home

G92 E0 ;Reset Extruder
G1 Z2.0 F3000 ;Move Z Axis up
G1 X10.1 Y20 Z0.28 F5000.0 ;Move to start position
G1 X10.1 Y200.0 Z0.28 F1500.0 E15 ;Draw the first line
G1 X10.4 Y200.0 Z0.28 F5000.0 ;Move to side a little
G1 X10.4 Y20 Z0.28 F1500.0 E30 ;Draw the second line
G92 E0 ;Reset Extruder
G1 Z2.0 F3000 ;Move Z Axis up

G92 E0
G92 E0
G1 F1500 E-6.5
;LAYER_COUNT:63
;LAYER:0
M106 S76.5
G0 F6000 X34.332 Y34.525 Z0.3
;TYPE:SKIRT
G1 F1500 E0
G1 F1200 X35.02 Y33.888 E0.04678
G1 X35.76 Y33.312 E0.09356
G1 X36.546 Y32.8 E0.14036
G1 X37.373 Y32.358 E0.18714
G1 X38.235 Y31.988 E0.23394
G1 X39.125 Y31.692 E0.28074
G1 X40.037 Y31.474 E0.32752
G1 X40.964 Y31.333 E0.3743
G1 X41.835 Y31.274 E0.41785
G1 X42.156 Y31.265 E0.43387
G1 X42.464 Y31.261 E0.44924
G1 X177.159 Y31.261 E7.1692
G1 X177.317 Y31.262 E7.17709
G1 X178.015 Y31.272 E7.21191
G1 X178.951 Y31.326 E7.25869
G1 X179.879 Y31.458 E7.30545
G1 X180.793 Y31.67 E7.35226
G1 X181.685 Y31.959 E7.39904
G1 X182.55 Y32.322 E7.44584
G1 X183.38 Y32.758 E7.49262
G1 X184.171 Y33.263 E7.53944
G1 X184.915 Y33.834 E7.58623
G1 X185.608 Y34.466 E7.63302
G1 X186.245 Y35.154 E7.6798
G1 X186.82 Y35.895 E7.72659
G1 X187.331 Y36.681 E7.77336
G1 X187.773 Y37.509 E7.82019
G1 X188.142 Y38.371 E7.86697
G1 X188.437 Y39.261 E7.91375
G1 X188.655 Y40.173 E7.96053
G1 X188.795 Y41.101 E8.00735
G1 X188.853 Y41.962 E8.0504
G1 X188.862 Y42.282 E8.06637
G1 X188.866 Y42.591 E8.08179
G1 X188.866 Y177.003 E14.78763
G1 X188.865 Y177.139 E14.79442
G1 X188.856 Y177.866 E14.83069
G1 X188.805 Y178.803 E14.87751
G1 X188.673 Y179.731 E14.92427
G1 X188.464 Y180.645 E14.97105
G1 X188.177 Y181.538 E15.01784
G1 X187.815 Y182.404 E15.06467
G1 X187.381 Y183.235 E15.11144
G1 X186.877 Y184.026 E15.15824
G1 X186.308 Y184.771 E15.20501
G1 X185.677 Y185.466 E15.25184
G1 X184.99 Y186.104 E15.29861
G1 X184.251 Y186.681 E15.34539
G1 X183.465 Y187.193 E15.39219
G1 X182.639 Y187.636 E15.43895
G1 X181.777 Y188.008 E15.48579
G1 X180.888 Y188.304 E15.53254
G1 X179.976 Y188.524 E15.57934
G1 X179.049 Y188.665 E15.62612
G1 X178.165 Y188.726 E15.67033
G1 X177.844 Y188.735 E15.68635
G1 X177.536 Y188.739 E15.70172
G1 X42.841 Y188.739 E22.42168
G1 X42.699 Y188.738 E22.42876
G1 X42.001 Y188.729 E22.46359
G1 X41.065 Y188.677 E22.51036
G1 X40.136 Y188.545 E22.55717
G1 X39.222 Y188.335 E22.60396
G1 X38.329 Y188.048 E22.65076
G1 X37.464 Y187.685 E22.69756
G1 X36.633 Y187.251 E22.74433
G1 X35.842 Y186.747 E22.79112
G1 X35.097 Y186.177 E22.83792
G1 X34.403 Y185.546 E22.88472
G1 X33.766 Y184.859 E22.93146
G1 X33.189 Y184.119 E22.97827
G1 X32.677 Y183.333 E23.02507
G1 X32.234 Y182.506 E23.07188
G1 X31.863 Y181.645 E23.11865
G1 X31.567 Y180.755 E23.16545
G1 X31.348 Y179.843 E23.21224
G1 X31.207 Y178.916 E23.25902
G1 X31.147 Y178.027 E23.30347
G1 X31.138 Y177.694 E23.32009
G1 X31.134 Y177.397 E23.33491
G1 X31.134 Y42.935 E30.04325
G1 X31.135 Y42.786 E30.05068
G1 X31.144 Y42.121 E30.08386
G1 X31.197 Y41.185 E30.13063
G1 X31.329 Y40.256 E30.17745
G1 X31.54 Y39.342 E30.22425
G1 X31.828 Y38.45 E30.27101
G1 X32.191 Y37.585 E30.31781
G1 X32.626 Y36.754 E30.36461
G1 X33.13 Y35.964 E30.41136
G1 X33.7 Y35.219 E30.45816
G1 X34.332 Y34.525 E30.50499
G0 F6000 X34.723 Y34.7
G1 F1200 X35.408 Y34.084 E30.55095
G1 X36.144 Y33.531 E30.59688
G1 X36.925 Y33.043 E30.64282
G1 X37.745 Y32.625 E30.68874
G1 X38.599 Y32.28 E30.73469
G1 X39.479 Y32.01 E30.78062
G1 X40.379 Y31.818 E30.82653
G1 X41.293 Y31.704 E30.87248
G1 X41.846 Y31.674 E30.90011
G1 X42.167 Y31.665 E30.91613
G1 X42.464 Y31.661 E30.93095
G1 X177.159 Y31.661 E37.65091
G1 X177.311 Y31.662 E37.65849
G1 X178.009 Y31.672 E37.69332
G1 X178.928 Y31.725 E37.73925
G1 X179.839 Y31.858 E37.78518
G1 X180.735 Y32.069 E37.8311
G1 X181.609 Y32.357 E37.87701
G1 X182.456 Y32.72 E37.92299
G1 X183.267 Y33.155 E37.9689
G1 X184.037 Y33.659 E38.01481
G1 X184.761 Y34.228 E38.06075
G1 X185.433 Y34.858 E38.10671
G1 X186.048 Y35.543 E38.15264
G1 X186.601 Y36.279 E38.19857
G1 X187.088 Y37.06 E38.24449
G1 X187.505 Y37.881 E38.29043
G1 X187.85 Y38.735 E38.33638
G1 X188.119 Y39.615 E38.38229
G1 X188.311 Y40.516 E38.42825
G1 X188.424 Y41.429 E38.47414
G1 X188.453 Y41.973 E38.50132
G1 X188.462 Y42.293 E38.51729
G1 X188.466 Y42.591 E38.53216
G1 X188.466 Y177.003 E45.238
G1 X188.465 Y177.134 E45.24454
G1 X188.456 Y177.861 E45.28081
G1 X188.405 Y178.78 E45.32673
G1 X188.274 Y179.692 E45.3727
G1 X188.064 Y180.588 E45.41861
G1 X187.778 Y181.463 E45.46454
G1 X187.417 Y182.31 E45.51047
G1 X186.983 Y183.122 E45.55641
G1 X186.481 Y183.894 E45.60235
G1 X185.913 Y184.619 E45.6483
G1 X185.285 Y185.292 E45.69422
G1 X184.601 Y185.908 E45.74015
G1 X183.866 Y186.462 E45.78607
G1 X183.086 Y186.951 E45.832
G1 X182.266 Y187.37 E45.87794
G1 X181.413 Y187.716 E45.92386
G1 X180.533 Y187.987 E45.9698
G1 X179.633 Y188.18 E46.01572
G1 X178.719 Y188.295 E46.06168
G1 X178.154 Y188.326 E46.08991
G1 X177.833 Y188.335 E46.10593
G1 X177.536 Y188.339 E46.12075
G1 X42.841 Y188.339 E52.84071
G1 X42.704 Y188.338 E52.84755
G1 X42.006 Y188.329 E52.88237
G1 X41.087 Y188.277 E52.92829
G1 X40.176 Y188.146 E52.97421
G1 X39.28 Y187.936 E53.02013
G1 X38.405 Y187.649 E53.06607
G1 X37.558 Y187.287 E53.11202
G1 X36.746 Y186.853 E53.15796
G1 X35.975 Y186.351 E53.20386
G1 X35.25 Y185.783 E53.24981
G1 X34.577 Y185.154 E53.29576
G1 X33.962 Y184.47 E53.34165
G1 X33.408 Y183.735 E53.38757
G1 X32.92 Y182.954 E53.43352
G1 X32.501 Y182.134 E53.47946
G1 X32.155 Y181.281 E53.52538
G1 X31.885 Y180.401 E53.57131
G1 X31.692 Y179.5 E53.61728
G1 X31.578 Y178.587 E53.66318
G1 X31.547 Y178.016 E53.69171
G1 X31.538 Y177.683 E53.70833
G1 X31.534 Y177.397 E53.7226
G1 X31.534 Y42.935 E60.43094
G1 X31.535 Y42.792 E60.43807
G1 X31.544 Y42.127 E60.47125
G1 X31.596 Y41.207 E60.51722
G1 X31.728 Y40.296 E60.56315
G1 X31.939 Y39.4 E60.60907
G1 X32.226 Y38.525 E60.65501
G1 X32.589 Y37.679 E60.70094
G1 X33.023 Y36.867 E60.74688
G1 X33.526 Y36.096 E60.7928
G1 X34.095 Y35.372 E60.83874
G1 X34.723 Y34.7 E60.88463
G0 F6000 X35.115 Y34.878
G1 F1200 X35.796 Y34.285 E60.92968
G1 X36.528 Y33.755 E60.97477
G1 X37.303 Y33.292 E61.01981
G1 X38.116 Y32.899 E61.06486
G1 X38.961 Y32.579 E61.10994
G1 X39.83 Y32.336 E61.15496
G1 X40.718 Y32.17 E61.20003
G1 X41.857 Y32.074 E61.25705
G1 X42.178 Y32.065 E61.27307
G1 X42.464 Y32.061 E61.28734
G1 X177.159 Y32.061 E68.00731
G1 X177.305 Y32.062 E68.01459
G1 X178.003 Y32.072 E68.04942
G1 X178.905 Y32.125 E68.09449
G1 X179.798 Y32.257 E68.13953
G1 X180.676 Y32.468 E68.18458
G1 X181.532 Y32.756 E68.22964
G1 X182.359 Y33.118 E68.27468
G1 X183.151 Y33.553 E68.31976
G1 X183.902 Y34.055 E68.36483
G1 X184.605 Y34.622 E68.40989
G1 X185.255 Y35.249 E68.45494
G1 X185.847 Y35.931 E68.5
G1 X186.377 Y36.662 E68.54505
G1 X186.839 Y37.438 E68.5901
G1 X187.232 Y38.251 E68.63515
G1 X187.55 Y39.096 E68.6802
G1 X187.793 Y39.966 E68.72526
G1 X187.958 Y40.854 E68.77032
G1 X188.053 Y41.984 E68.8269
G1 X188.062 Y42.304 E68.84287
G1 X188.066 Y42.591 E68.85719
G1 X188.066 Y177.003 E75.56303
G1 X188.065 Y177.129 E75.56932
G1 X188.056 Y177.856 E75.60559
G1 X188.005 Y178.758 E75.65066
G1 X187.874 Y179.652 E75.69574
G1 X187.665 Y180.53 E75.74077
G1 X187.379 Y181.387 E75.78584
G1 X187.018 Y182.215 E75.83091
G1 X186.586 Y183.007 E75.87592
G1 X186.085 Y183.759 E75.921
G1 X185.519 Y184.463 E75.96606
G1 X184.894 Y185.114 E76.01109
G1 X184.213 Y185.708 E76.05617
G1 X183.482 Y186.239 E76.10125
G1 X182.708 Y186.703 E76.14627
G1 X181.895 Y187.097 E76.19134
G1 X181.051 Y187.417 E76.23637
G1 X180.181 Y187.662 E76.28147
G1 X179.294 Y187.828 E76.32649
G1 X178.143 Y187.926 E76.38412
G1 X177.822 Y187.935 E76.40014
G1 X177.536 Y187.939 E76.41441
G1 X42.841 Y187.939 E83.13437
G1 X42.709 Y187.938 E83.14096
G1 X42.011 Y187.929 E83.17578
G1 X41.11 Y187.878 E83.22081
G1 X40.216 Y187.746 E83.26589
G1 X39.338 Y187.537 E83.31092
G1 X38.481 Y187.25 E83.35601
G1 X37.654 Y186.889 E83.40103
G1 X36.861 Y186.456 E83.4461
G1 X36.11 Y185.955 E83.49114
G1 X35.406 Y185.389 E83.53621
G1 X34.755 Y184.763 E83.58127
G1 X34.162 Y184.082 E83.62632
G1 X33.632 Y183.351 E83.67137
G1 X33.168 Y182.576 E83.71643
G1 X32.774 Y181.763 E83.7615
G1 X32.454 Y180.919 E83.80654
G1 X32.21 Y180.049 E83.85162
G1 X32.044 Y179.161 E83.89669
G1 X31.947 Y178.006 E83.95451
G1 X31.938 Y177.673 E83.97113
G1 X31.934 Y177.397 E83.9849
G1 X31.934 Y42.935 E90.69324
G1 X31.935 Y42.797 E90.70012
G1 X31.944 Y42.132 E90.7333
G1 X31.996 Y41.23 E90.77838
G1 X32.128 Y40.337 E90.82342
G1 X32.338 Y39.459 E90.86845
G1 X32.625 Y38.602 E90.91354
G1 X32.987 Y37.775 E90.95858
G1 X33.42 Y36.983 E91.00362
G1 X33.922 Y36.232 E91.04868
G1 X34.489 Y35.528 E91.09378
G1 X35.115 Y34.878 E91.1388
G1 F1500 E84.6388
;MESH:915285b3-9b31-4894-81fc-0b1e0a9290b9.stl
G0 F6000 X42.748 Y41.596
G0 X42.748 Y42.875
G0 X46.269 Y73.592
G0 X76.142 Y73.634
G0 X76.072 Y73.564
;TYPE:WALL-INNER
G1 F1500 E91.1388
G1 F1200 X76.072 Y43.789 E92.62428
G1 X46.297 Y43.789 E94.10976
G1 X46.297 Y73.564 E95.59525
G1 X76.072 Y73.564 E97.08073
G0 F6000 X75.672 Y73.164
;TYPE:WALL-OUTER
G1 F1200 X75.672 Y44.189 E98.52629
G1 X46.697 Y44.189 E99.97186
G1 X46.697 Y73.164 E101.41743
G1 X75.672 Y73.164 E102.863
G1 F1500 E96.363
G0 F6000 X76.172 Y73.164
G0 X79.606 Y73.592
G0 X109.479 Y73.634
G0 X109.409 Y73.564
;TYPE:WALL-INNER
G1 F1500 E102.863
G1 F1200 X109.409 Y43.789 E104.34848
G1 X79.634 Y43.789 E105.83396
G1 X79.634 Y73.564 E107.31944
G1 X109.409 Y73.564 E108.80492
G0 F6000 X109.009 Y73.164
;TYPE:WALL-OUTER
G1 F1200 X109.009 Y44.189 E110.25049
G1 X80.034 Y44.189 E111.69606
G1 X80.034 Y73.164 E113.14163
G1 X109.009 Y73.164 E114.5872
G0 F6000 X109.509 Y73.164
G0 X112.902 Y73.634
G0 X112.972 Y73.564
;TYPE:WALL-INNER
G1 F1200 X142.747 Y73.564 E116.07268
G1 X142.747 Y43.789 E117.55816
G1 X112.972 Y43.789 E119.04364
G1 X112.972 Y73.564 E120.52912
G0 F6000 X113.372 Y73.164
;TYPE:WALL-OUTER
G1 F1200 X142.347 Y73.164 E121.97469
G1 X142.347 Y44.189 E123.42026
G1 X113.372 Y44.189 E124.86583
G1 X113.372 Y73.164 E126.3114
G1 F1500 E119.8114
G0 F6000 X112.872 Y73.164
G0 X112.944 Y73.592
G0 X146.239 Y73.634
G0 X146.309 Y73.564
;TYPE:WALL-INNER
G1 F1500 E126.3114
G1 F1200 X176.084 Y73.564 E127.79688
G1 X176.084 Y43.789 E129.28236
G1 X146.309 Y43.789 E130.76784
G1 X146.309 Y73.564 E132.25332
G0 F6000 X146.709 Y73.164
;TYPE:WALL-OUTER
G1 F1200 X175.684 Y73.164 E133.69889
G1 X175.684 Y44.189 E135.14446
G1 X146.709 Y44.189 E136.59002
G1 X146.709 Y73.164 E138.03559
G1 F1500 E131.53559
G0 F6000 X146.209 Y73.164
G0 X146.239 Y106.971
G0 X146.309 Y106.901
;TYPE:WALL-INNER
G1 F1500 E138.03559
G1 F1200 X176.084 Y106.901 E139.52107
G1 X176.084 Y77.126 E141.00655
G1 X146.309 Y77.126 E142.49204
G1 X146.309 Y106.901 E143.97752
G0 F6000 X146.709 Y106.501
;TYPE:WALL-OUTER
G1 F1200 X175.684 Y106.501 E145.42309
G1 X175.684 Y77.526 E146.86865
G1 X146.709 Y77.526 E148.31422
G1 X146.709 Y106.501 E149.75979
G1 F1500 E143.25979
G0 F6000 X146.209 Y106.501
G0 X142.775 Y106.929
G0 X112.902 Y106.971
G0 X112.972 Y106.901
;TYPE:WALL-INNER
G1 F1500 E149.75979
G1 F1200 X142.747 Y106.901 E151.24527
G1 X142.747 Y77.126 E152.73075
G1 X112.972 Y77.126 E154.21623
G1 X112.972 Y106.901 E155.70171
G0 F6000 X113.372 Y106.501
;TYPE:WALL-OUTER
G1 F1200 X142.347 Y106.501 E157.14728
G1 X142.347 Y77.526 E158.59285
G1 X113.372 Y77.526 E160.03842
G1 X113.372 Y106.501 E161.48399
G0 F6000 X112.872 Y106.501
G0 X109.479 Y106.971
G0 X109.409 Y106.901
;TYPE:WALL-INNER
G1 F1200 X109.409 Y77.126 E162.96947
G1 X79.634 Y77.126 E164.45495
G1 X79.634 Y106.901 E165.94043
G1 X109.409 Y106.901 E167.42591
G0 F6000 X109.009 Y106.501
;TYPE:WALL-OUTER
G1 F1200 X109.009 Y77.526 E168.87148
G1 X80.034 Y77.526 E170.31705
G1 X80.034 Y106.501 E171.76262
G1 X109.009 Y106.501 E173.20819
G1 F1500 E166.70819
G0 F6000 X109.509 Y106.501
G0 X109.437 Y106.929
G0 X76.142 Y106.971
G0 X76.072 Y106.901
;TYPE:WALL-INNER
G1 F1500 E173.20819
G1 F1200 X76.072 Y77.126 E174.69367
G1 X46.297 Y77.126 E176.17915
G1 X46.297 Y106.901 E177.66463
G1 X76.072 Y106.901 E179.15011
G0 F6000 X75.672 Y106.501
;TYPE:WALL-OUTER
G1 F1200 X75.672 Y77.526 E180.59568
G1 X46.697 Y77.526 E182.04125
G1 X46.697 Y106.501 E183.48682
G1 X75.672 Y106.501 E184.93238
G1 F1500 E178.43238
G0 F6000 X76.172 Y106.501
G0 X76.142 Y173.646
G0 X76.072 Y173.576
;TYPE:WALL-INNER
G1 F1500 E184.93238
G1 F1200 X76.072 Y143.801 E186.41786
G1 X46.297 Y143.801 E187.90335
G1 X46.297 Y173.576 E189.38883
G1 X76.072 Y173.576 E190.87431
G0 F6000 X75.672 Y173.176
;TYPE:WALL-OUTER
G1 F1200 X75.672 Y144.201 E192.31988
G1 X46.697 Y144.201 E193.76544
G1 X46.697 Y173.176 E195.21101
G1 X75.672 Y173.176 E196.65658
G1 F1500 E190.15658
G0 F6000 X76.172 Y173.176
G0 X76.142 Y140.309
G0 X76.072 Y140.239
;TYPE:WALL-INNER
G1 F1500 E196.65658
G1 F1200 X76.072 Y110.464 E198.14206
G1 X46.297 Y110.464 E199.62754
G1 X46.297 Y140.239 E201.11302
G1 X76.072 Y140.239 E202.5985
G0 F6000 X75.672 Y139.839
;TYPE:WALL-OUTER
G1 F1200 X75.672 Y110.864 E204.04407
G1 X46.697 Y110.864 E205.48964
G1 X46.697 Y139.839 E206.93521
G1 X75.672 Y139.839 E208.38078
G1 F1500 E201.88078
G0 F6000 X76.172 Y139.839
G0 X79.606 Y140.267
G0 X109.479 Y140.309
G0 X109.409 Y140.239
;TYPE:WALL-INNER
G1 F1500 E208.38078
G1 F1200 X109.409 Y110.464 E209.86626
G1 X79.634 Y110.464 E211.35174
G1 X79.634 Y140.239 E212.83722
G1 X109.409 Y140.239 E214.3227
G0 F6000 X109.009 Y139.839
;TYPE:WALL-OUTER
G1 F1200 X109.009 Y110.864 E215.76827
G1 X80.034 Y110.864 E217.21384
G1 X80.034 Y139.839 E218.65941
G1 X109.009 Y139.839 E220.10498
G0 F6000 X109.509 Y139.839
G0 X112.902 Y140.309
G0 X112.972 Y140.239
;TYPE:WALL-INNER
G1 F1200 X142.747 Y140.239 E221.59046
G1 X142.747 Y110.464 E223.07594
G1 X112.972 Y110.464 E224.56142
G1 X112.972 Y140.239 E226.0469
G0 F6000 X113.372 Y139.839
;TYPE:WALL-OUTER
G1 F1200 X142.347 Y139.839 E227.49247
G1 X142.347 Y110.864 E228.93804
G1 X113.372 Y110.864 E230.38361
G1 X113.372 Y139.839 E231.82917
G1 F1500 E225.32917
G0 F6000 X112.872 Y139.839
G0 X112.944 Y140.267
G0 X146.239 Y140.309
G0 X146.309 Y140.239
;TYPE:WALL-INNER
G1 F1500 E231.82917
G1 F1200 X176.084 Y140.239 E233.31465
G1 X176.084 Y110.464 E234.80014
G1 X146.309 Y110.464 E236.28562
G1 X146.309 Y140.239 E237.7711
G0 F6000 X146.709 Y139.839
;TYPE:WALL-OUTER
G1 F1200 X175.684 Y139.839 E239.21667
G1 X175.684 Y110.864 E240.66223
G1 X146.709 Y110.864 E242.1078
G1 X146.709 Y139.839 E243.55337
G1 F1500 E237.05337
G0 F6000 X146.209 Y139.839
G0 X146.239 Y173.646
G0 X146.309 Y173.576
;TYPE:WALL-INNER
G1 F1500 E243.55337
G1 F1200 X176.084 Y173.576 E245.03885
G1 X176.084 Y143.801 E246.52433
G1 X146.309 Y143.801 E248.00981
G1 X146.309 Y173.576 E249.49529
G0 F6000 X146.709 Y173.176
;TYPE:WALL-OUTER
G1 F1200 X175.684 Y173.176 E250.94086
G1 X175.684 Y144.201 E252.38643
G1 X146.709 Y144.201 E253.832
G1 X146.709 Y173.176 E255.27757
G1 F1500 E248.77757
G0 F6000 X146.209 Y173.176
G0 X142.775 Y173.604
G0 X112.902 Y173.646
G0 X112.972 Y173.576
;TYPE:WALL-INNER
G1 F1500 E255.27757
G1 F1200 X142.747 Y173.576 E256.76305
G1 X142.747 Y143.801 E258.24853
G1 X112.972 Y143.801 E259.73401
