;FLAVOR:Marlin
;TIME:14437
;Filament used: 20.646m
;Layer height: 0.3
;MINX:32.579
;MINY:31.134
;MINZ:0.3
;MAXX:187.421
;MAXY:188.866
;MAXZ:18.9
;Generated with Cura_SteamEngine 4.4.1
M140 S60
M105
M190 S60
M104 S200
M105
M109 S200
M82 ;absolute extrusion mode
M201 X500.00 Y500.00 Z100.00 E5000.00 ;Setup machine max acceleration
M203 X500.00 Y500.00 Z10.00 E50.00 ;Setup machine max feedrate
M204 P500.00 R1000.00 T500.00 ;Setup Print/Retract/Travel acceleration
M205 X8.00 Y8.00 Z0.40 E5.00 ;Setup Jerk
M220 S100 ;Reset Feedrate
M221 S100 ;Reset Flowrate

G28 ;Home

G92 E0 ;Reset Extruder
G1 Z2.0 F3000 ;Move Z Axis up
G1 X10.1 Y20 Z0.28 F5000.0 ;Move to start position
G1 X10.1 Y200.0 Z0.28 F1500.0 E15 ;Draw the first line
G1 X10.4 Y200.0 Z0.28 F5000.0 ;Move to side a little
G1 X10.4 Y20 Z0.28 F1500.0 E30 ;Draw the second line
G92 E0 ;Reset Extruder
G1 Z2.0 F3000 ;Move Z Axis up

G92 E0
G92 E0
G1 F1500 E-6.5
;LAYER_COUNT:63
;LAYER:0
M107
G0 F6000 X35.777 Y34.398 Z0.3
;TYPE:SKIRT
G1 F1500 E0
G1 F1200 X36.465 Y33.761 E0.04678
G1 X37.205 Y33.185 E0.09356
G1 X37.991 Y32.673 E0.14036
G1 X38.818 Y32.231 E0.18714
G1 X39.68 Y31.861 E0.23394
G1 X40.57 Y31.565 E0.28074
G1 X41.482 Y31.347 E0.32752
G1 X42.409 Y31.206 E0.3743
G1 X43.28 Y31.147 E0.41785
G1 X43.601 Y31.138 E0.43387
G1 X43.909 Y31.134 E0.44924
G1 X175.714 Y31.134 E7.02502
G1 X175.872 Y31.135 E7.0329
G1 X176.57 Y31.145 E7.06773
G1 X177.506 Y31.199 E7.1145
G1 X178.434 Y31.331 E7.16127
G1 X179.348 Y31.543 E7.20808
G1 X180.24 Y31.832 E7.25486
G1 X181.105 Y32.195 E7.30166
G1 X181.935 Y32.631 E7.34843
G1 X182.726 Y33.136 E7.39525
G1 X183.47 Y33.707 E7.44204
G1 X184.163 Y34.339 E7.48884
G1 X184.8 Y35.027 E7.53561
G1 X185.375 Y35.768 E7.58241
G1 X185.886 Y36.554 E7.62918
G1 X186.328 Y37.382 E7.67601
G1 X186.697 Y38.244 E7.72279
G1 X186.992 Y39.134 E7.76956
G1 X187.21 Y40.046 E7.81635
G1 X187.35 Y40.974 E7.86317
G1 X187.408 Y41.835 E7.90622
G1 X187.417 Y42.155 E7.92219
G1 X187.421 Y42.464 E7.93761
G1 X187.421 Y177.13 E14.65612
G1 X187.42 Y177.266 E14.66291
G1 X187.411 Y177.993 E14.69918
G1 X187.36 Y178.93 E14.746
G1 X187.228 Y179.858 E14.79276
G1 X187.019 Y180.772 E14.83954
G1 X186.732 Y181.665 E14.88633
G1 X186.37 Y182.531 E14.93316
G1 X185.936 Y183.362 E14.97993
G1 X185.432 Y184.153 E15.02673
G1 X184.863 Y184.898 E15.0735
G1 X184.232 Y185.593 E15.12033
G1 X183.545 Y186.231 E15.1671
G1 X182.806 Y186.808 E15.21388
G1 X182.02 Y187.32 E15.26068
G1 X181.194 Y187.763 E15.30744
G1 X180.332 Y188.135 E15.35428
G1 X179.443 Y188.431 E15.40103
G1 X178.531 Y188.651 E15.44783
G1 X177.604 Y188.792 E15.49461
G1 X176.72 Y188.853 E15.53882
G1 X176.399 Y188.862 E15.55484
G1 X176.091 Y188.866 E15.57021
G1 X44.286 Y188.866 E22.14599
G1 X44.144 Y188.865 E22.15307
G1 X43.446 Y188.856 E22.1879
G1 X42.51 Y188.804 E22.23467
G1 X41.581 Y188.672 E22.28148
G1 X40.667 Y188.462 E22.32827
G1 X39.774 Y188.175 E22.37506
G1 X38.909 Y187.812 E22.42186
G1 X38.078 Y187.378 E22.46864
G1 X37.287 Y186.874 E22.51543
G1 X36.542 Y186.304 E22.56223
G1 X35.848 Y185.673 E22.60903
G1 X35.211 Y184.986 E22.65577
G1 X34.634 Y184.246 E22.70258
G1 X34.122 Y183.46 E22.74938
G1 X33.679 Y182.633 E22.79619
G1 X33.308 Y181.772 E22.84296
G1 X33.012 Y180.882 E22.88975
G1 X32.793 Y179.97 E22.93655
G1 X32.652 Y179.043 E22.98333
G1 X32.592 Y178.154 E23.02778
G1 X32.583 Y177.821 E23.0444
G1 X32.579 Y177.524 E23.05922
G1 X32.579 Y42.808 E29.78023
G1 X32.58 Y42.659 E29.78766
G1 X32.589 Y41.994 E29.82084
G1 X32.642 Y41.058 E29.86761
G1 X32.774 Y40.129 E29.91443
G1 X32.985 Y39.215 E29.96123
G1 X33.273 Y38.323 E30.00799
G1 X33.636 Y37.458 E30.05479
G1 X34.071 Y36.627 E30.10159
G1 X34.575 Y35.837 E30.14834
G1 X35.145 Y35.092 E30.19514
G1 X35.777 Y34.398 E30.24197
G0 F6000 X36.168 Y34.573
G1 F1200 X36.853 Y33.957 E30.28793
G1 X37.589 Y33.404 E30.33386
G1 X38.37 Y32.916 E30.3798
G1 X39.19 Y32.498 E30.42572
G1 X40.044 Y32.153 E30.47167
G1 X40.924 Y31.883 E30.51759
G1 X41.824 Y31.691 E30.56351
G1 X42.738 Y31.577 E30.60946
G1 X43.291 Y31.547 E30.63709
G1 X43.612 Y31.538 E30.65311
G1 X43.909 Y31.534 E30.66793
G1 X175.714 Y31.534 E37.24371
G1 X175.866 Y31.535 E37.25129
G1 X176.564 Y31.545 E37.28612
G1 X177.483 Y31.598 E37.33204
G1 X178.394 Y31.731 E37.37797
G1 X179.29 Y31.942 E37.4239
G1 X180.164 Y32.23 E37.46981
G1 X181.011 Y32.593 E37.51578
G1 X181.822 Y33.028 E37.5617
G1 X182.592 Y33.532 E37.60761
G1 X183.316 Y34.101 E37.65355
G1 X183.988 Y34.731 E37.69951
G1 X184.603 Y35.416 E37.74543
G1 X185.156 Y36.152 E37.79136
G1 X185.643 Y36.933 E37.83728
G1 X186.06 Y37.754 E37.88322
G1 X186.405 Y38.608 E37.92917
G1 X186.674 Y39.488 E37.97508
G1 X186.866 Y40.389 E38.02104
G1 X186.979 Y41.302 E38.06694
G1 X187.008 Y41.846 E38.09412
G1 X187.017 Y42.166 E38.11009
G1 X187.021 Y42.464 E38.12496
G1 X187.021 Y177.13 E44.84347
G1 X187.02 Y177.261 E44.85001
G1 X187.011 Y177.988 E44.88628
G1 X186.96 Y178.907 E44.9322
G1 X186.829 Y179.819 E44.97817
G1 X186.619 Y180.715 E45.02408
G1 X186.333 Y181.59 E45.07001
G1 X185.972 Y182.437 E45.11594
G1 X185.538 Y183.249 E45.16188
G1 X185.036 Y184.021 E45.20782
G1 X184.468 Y184.746 E45.25377
G1 X183.84 Y185.419 E45.29969
G1 X183.156 Y186.035 E45.34562
G1 X182.421 Y186.589 E45.39153
G1 X181.641 Y187.078 E45.43746
G1 X180.821 Y187.497 E45.4834
G1 X179.968 Y187.843 E45.52933
G1 X179.088 Y188.114 E45.57527
G1 X178.188 Y188.307 E45.62119
G1 X177.274 Y188.422 E45.66715
G1 X176.709 Y188.453 E45.69538
G1 X176.388 Y188.462 E45.7114
G1 X176.091 Y188.466 E45.72622
G1 X44.286 Y188.466 E52.302
G1 X44.149 Y188.465 E52.30883
G1 X43.451 Y188.456 E52.34366
G1 X42.532 Y188.404 E52.38958
G1 X41.621 Y188.273 E52.4355
G1 X40.725 Y188.063 E52.48141
G1 X39.85 Y187.776 E52.52735
G1 X39.003 Y187.414 E52.57331
G1 X38.191 Y186.98 E52.61924
G1 X37.42 Y186.478 E52.66514
G1 X36.695 Y185.91 E52.71109
G1 X36.022 Y185.281 E52.75705
G1 X35.407 Y184.597 E52.80294
G1 X34.853 Y183.862 E52.84886
G1 X34.365 Y183.081 E52.8948
G1 X33.946 Y182.261 E52.94074
G1 X33.6 Y181.408 E52.98667
G1 X33.33 Y180.528 E53.03259
G1 X33.137 Y179.627 E53.07856
G1 X33.023 Y178.714 E53.12447
G1 X32.992 Y178.143 E53.153
G1 X32.983 Y177.81 E53.16962
G1 X32.979 Y177.524 E53.18389
G1 X32.979 Y42.808 E59.90489
G1 X32.98 Y42.665 E59.91203
G1 X32.989 Y42 E59.94521
G1 X33.041 Y41.08 E59.99118
G1 X33.173 Y40.169 E60.03711
G1 X33.384 Y39.273 E60.08303
G1 X33.671 Y38.398 E60.12897
G1 X34.034 Y37.552 E60.1749
G1 X34.468 Y36.74 E60.22083
G1 X34.971 Y35.969 E60.26676
G1 X35.54 Y35.245 E60.3127
G1 X36.168 Y34.573 E60.35859
G0 F6000 X36.56 Y34.751
G1 F1200 X37.241 Y34.158 E60.40364
G1 X37.973 Y33.628 E60.44873
G1 X38.748 Y33.165 E60.49377
G1 X39.561 Y32.772 E60.53882
G1 X40.406 Y32.452 E60.5839
G1 X41.275 Y32.209 E60.62891
G1 X42.163 Y32.043 E60.67398
G1 X43.302 Y31.947 E60.73101
G1 X43.623 Y31.938 E60.74703
G1 X43.909 Y31.934 E60.7613
G1 X175.714 Y31.934 E67.33708
G1 X175.86 Y31.935 E67.34436
G1 X176.558 Y31.945 E67.37919
G1 X177.46 Y31.998 E67.42427
G1 X178.353 Y32.13 E67.46931
G1 X179.231 Y32.341 E67.51436
G1 X180.087 Y32.629 E67.55942
G1 X180.914 Y32.991 E67.60445
G1 X181.706 Y33.426 E67.64953
G1 X182.457 Y33.928 E67.6946
G1 X183.16 Y34.495 E67.73966
G1 X183.81 Y35.122 E67.78472
G1 X184.402 Y35.804 E67.82977
G1 X184.932 Y36.535 E67.87482
G1 X185.394 Y37.311 E67.91988
G1 X185.787 Y38.124 E67.96493
G1 X186.105 Y38.969 E68.00997
G1 X186.348 Y39.839 E68.05504
G1 X186.513 Y40.727 E68.1001
G1 X186.608 Y41.857 E68.15667
G1 X186.617 Y42.177 E68.17264
G1 X186.621 Y42.464 E68.18696
G1 X186.621 Y177.13 E74.90548
G1 X186.62 Y177.256 E74.91176
G1 X186.611 Y177.983 E74.94804
G1 X186.56 Y178.885 E74.99311
G1 X186.429 Y179.779 E75.03819
G1 X186.22 Y180.657 E75.08322
G1 X185.934 Y181.514 E75.12829
G1 X185.573 Y182.342 E75.17335
G1 X185.141 Y183.134 E75.21836
G1 X184.64 Y183.886 E75.26344
G1 X184.074 Y184.59 E75.30851
G1 X183.449 Y185.241 E75.35353
G1 X182.768 Y185.835 E75.39862
G1 X182.037 Y186.366 E75.44369
G1 X181.263 Y186.83 E75.48872
G1 X180.45 Y187.224 E75.53379
G1 X179.606 Y187.544 E75.57882
G1 X178.736 Y187.789 E75.62391
G1 X177.849 Y187.955 E75.66894
G1 X176.698 Y188.053 E75.72657
G1 X176.377 Y188.062 E75.74259
G1 X176.091 Y188.066 E75.75686
G1 X44.286 Y188.066 E82.33264
G1 X44.154 Y188.065 E82.33922
G1 X43.456 Y188.056 E82.37405
G1 X42.555 Y188.005 E82.41907
G1 X41.661 Y187.873 E82.46416
G1 X40.783 Y187.664 E82.50918
G1 X39.926 Y187.377 E82.55427
G1 X39.099 Y187.016 E82.59929
G1 X38.306 Y186.583 E82.64437
G1 X37.555 Y186.082 E82.68941
G1 X36.851 Y185.516 E82.73447
G1 X36.2 Y184.89 E82.77953
G1 X35.607 Y184.209 E82.82458
G1 X35.077 Y183.478 E82.86963
G1 X34.613 Y182.703 E82.9147
G1 X34.219 Y181.89 E82.95977
G1 X33.899 Y181.046 E83.0048
G1 X33.655 Y180.176 E83.04988
G1 X33.489 Y179.288 E83.09495
G1 X33.392 Y178.133 E83.15278
G1 X33.383 Y177.8 E83.1694
G1 X33.379 Y177.524 E83.18317
G1 X33.379 Y42.808 E89.90418
G1 X33.38 Y42.67 E89.91106
G1 X33.389 Y42.005 E89.94424
G1 X33.441 Y41.103 E89.98932
G1 X33.573 Y40.21 E90.03435
G1 X33.783 Y39.332 E90.07939
G1 X34.07 Y38.475 E90.12448
G1 X34.432 Y37.648 E90.16952
G1 X34.865 Y36.856 E90.21455
G1 X35.367 Y36.105 E90.25962
G1 X35.934 Y35.401 E90.30472
G1 X36.56 Y34.751 E90.34974
G1 F1500 E83.84974
;MESH:f26a46ba-744b-46a3-80c2-485c4b0155f9.stl
G0 F6000 X47.243 Y74.807
G0 X47.243 Y76.112
G0 X45.078 Y79.606
G0 X45.078 Y109.437
G0 X74.909 Y112.944
G0 X74.951 Y176.154
G0 X74.881 Y176.084
;TYPE:WALL-INNER
G1 F1500 E90.34974
G1 F1200 X74.881 Y146.309 E91.83522
G1 X45.106 Y146.309 E93.3207
G1 X45.106 Y176.084 E94.80618
G1 X74.881 Y176.084 E96.29166
G0 F6000 X74.481 Y175.684
;TYPE:WALL-OUTER
G1 F1200 X74.481 Y146.709 E97.73723
G1 X45.506 Y146.709 E99.1828
G1 X45.506 Y175.684 E100.62837
G1 X74.481 Y175.684 E102.07394
G1 F1500 E95.57394
G0 F6000 X74.981 Y175.684
G0 X74.951 Y142.817
G0 X74.881 Y142.747
;TYPE:WALL-INNER
G1 F1500 E102.07394
G1 F1200 X74.881 Y112.972 E103.55942
G1 X45.106 Y112.972 E105.0449
G1 X45.106 Y142.747 E106.53038
G1 X74.881 Y142.747 E108.01586
G0 F6000 X74.481 Y142.347
;TYPE:WALL-OUTER
G1 F1200 X74.481 Y113.372 E109.46143
G1 X45.506 Y113.372 E110.907
G1 X45.506 Y142.347 E112.35257
G1 X74.481 Y142.347 E113.79813
G1 F1500 E107.29813
G0 F6000 X74.981 Y142.347
G0 X74.951 Y76.142
G0 X74.881 Y76.072
;TYPE:WALL-INNER
G1 F1500 E113.79813
G1 F1200 X74.881 Y46.297 E115.28362
G1 X45.106 Y46.297 E116.7691
G1 X45.106 Y76.072 E118.25458
G1 X74.881 Y76.072 E119.74006
G0 F6000 X74.481 Y75.672
;TYPE:WALL-OUTER
G1 F1200 X74.481 Y46.697 E121.18563
G1 X45.506 Y46.697 E122.6312
G1 X45.506 Y75.672 E124.07676
G1 X74.481 Y75.672 E125.52233
G1 F1500 E119.02233
G0 F6000 X74.981 Y75.672
G0 X74.951 Y109.479
G0 X74.881 Y109.409
;TYPE:WALL-INNER
G1 F1500 E125.52233
G1 F1200 X74.881 Y79.634 E127.00781
G1 X45.106 Y79.634 E128.49329
G1 X45.106 Y109.409 E129.97877
G1 X74.881 Y109.409 E131.46426
G0 F6000 X74.481 Y109.009
;TYPE:WALL-OUTER
G1 F1200 X74.481 Y80.034 E132.90982
G1 X45.506 Y80.034 E134.35539
G1 X45.506 Y109.009 E135.80096
G1 X74.481 Y109.009 E137.24653
G1 F1500 E130.74653
G0 F6000 X74.981 Y109.009
G0 X78.416 Y109.437
G0 X111.711 Y109.479
G0 X111.781 Y109.409
;TYPE:WALL-INNER
G1 F1500 E137.24653
G1 F1200 X141.556 Y109.409 E138.73201
G1 X141.556 Y79.634 E140.21749
G1 X111.781 Y79.634 E141.70297
G1 X111.781 Y109.409 E143.18845
G0 F6000 X112.181 Y109.009
;TYPE:WALL-OUTER
G1 F1200 X141.156 Y109.009 E144.63402
G1 X141.156 Y80.034 E146.07959
G1 X112.181 Y80.034 E147.52516
G1 X112.181 Y109.009 E148.97073
G0 F6000 X111.681 Y109.009
G0 X108.289 Y109.479
G0 X108.219 Y109.409
;TYPE:WALL-INNER
G1 F1200 X108.219 Y79.634 E150.45621
G1 X78.444 Y79.634 E151.94169
G1 X78.444 Y109.409 E153.42717
G1 X108.219 Y109.409 E154.91265
G0 F6000 X107.819 Y109.009
;TYPE:WALL-OUTER
G1 F1200 X107.819 Y80.034 E156.35822
G1 X78.844 Y80.034 E157.80379
G1 X78.844 Y109.009 E159.24936
G1 X107.819 Y109.009 E160.69493
G1 F1500 E154.19493
G0 F6000 X108.319 Y109.009
G0 X108.289 Y76.142
G0 X108.219 Y76.072
;TYPE:WALL-INNER
G1 F1500 E160.69493
G1 F1200 X108.219 Y46.297 E162.18041
G1 X78.444 Y46.297 E163.66589
G1 X78.444 Y76.072 E165.15137
G1 X108.219 Y76.072 E166.63685
G0 F6000 X107.819 Y75.672
;TYPE:WALL-OUTER
G1 F1200 X107.819 Y46.697 E168.08242
G1 X78.844 Y46.697 E169.52799
G1 X78.844 Y75.672 E170.97355
G1 X107.819 Y75.672 E172.41912
G0 F6000 X108.319 Y75.672
G0 X111.711 Y76.142
G0 X111.781 Y76.072
;TYPE:WALL-INNER
G1 F1200 X141.556 Y76.072 E173.9046
G1 X141.556 Y46.297 E175.39008
G1 X111.781 Y46.297 E176.87557
G1 X111.781 Y76.072 E178.36105
G0 F6000 X112.181 Y75.672
;TYPE:WALL-OUTER
G1 F1200 X141.156 Y75.672 E179.80661
G1 X141.156 Y46.697 E181.25218
G1 X112.181 Y46.697 E182.69775
G1 X112.181 Y75.672 E184.14332
G1 F1500 E177.64332
G0 F6000 X111.681 Y75.672
G0 X111.753 Y76.1
G0 X145.049 Y76.142
G0 X145.119 Y76.072
;TYPE:WALL-INNER
G1 F1500 E184.14332
G1 F1200 X174.894 Y76.072 E185.6288
G1 X174.894 Y46.297 E187.11428
G1 X145.119 Y46.297 E188.59976
G1 X145.119 Y76.072 E190.08524
G0 F6000 X145.519 Y75.672
;TYPE:WALL-OUTER
G1 F1200 X174.494 Y75.672 E191.53081
G1 X174.494 Y46.697 E192.97638
G1 X145.519 Y46.697 E194.42195
G1 X145.519 Y75.672 E195.86752
G1 F1500 E189.36752
G0 F6000 X145.019 Y75.672
G0 X145.049 Y109.479
G0 X145.119 Y109.409
;TYPE:WALL-INNER
G1 F1500 E195.86752
G1 F1200 X174.894 Y109.409 E197.353
G1 X174.894 Y79.634 E198.83848
G1 X145.119 Y79.634 E200.32396
G1 X145.119 Y109.409 E201.80944
G0 F6000 X145.519 Y109.009
;TYPE:WALL-OUTER
G1 F1200 X174.494 Y109.009 E203.25501
G1 X174.494 Y80.034 E204.70058
G1 X145.519 Y80.034 E206.14615
G1 X145.519 Y109.009 E207.59172
G1 F1500 E201.09172
G0 F6000 X145.019 Y109.009
G0 X145.049 Y176.154
G0 X145.119 Y176.084
;TYPE:WALL-INNER
G1 F1500 E207.59172
G1 F1200 X174.894 Y176.084 E209.0772
G1 X174.894 Y146.309 E210.56268
G1 X145.119 Y146.309 E212.04816
G1 X145.119 Y176.084 E213.53364
G0 F6000 X145.519 Y175.684
;TYPE:WALL-OUTER
G1 F1200 X174.494 Y175.684 E214.97921
G1 X174.494 Y146.709 E216.42478
G1 X145.519 Y146.709 E217.87034
G1 X145.519 Y175.684 E219.31591
G1 F1500 E212.81591
G0 F6000 X145.019 Y175.684
G0 X145.049 Y142.817
G0 X145.119 Y142.747
;TYPE:WALL-INNER
G1 F1500 E219.31591
G1 F1200 X174.894 Y142.747 E220.80139
G1 X174.894 Y112.972 E222.28687
G1 X145.119 Y112.972 E223.77236
G1 X145.119 Y142.747 E225.25784
G0 F6000 X145.519 Y142.347
;TYPE:WALL-OUTER
G1 F1200 X174.494 Y142.347 E226.7034
G1 X174.494 Y113.372 E228.14897
G1 X145.519 Y113.372 E229.59454
G1 X145.519 Y142.347 E231.04011
G1 F1500 E224.54011
G0 F6000 X145.019 Y142.347
G0 X141.584 Y142.775
G0 X111.711 Y142.817
G0 X111.781 Y142.747
;TYPE:WALL-INNER
G1 F1500 E231.04011
G1 F1200 X141.556 Y142.747 E232.52559
G1 X141.556 Y112.972 E234.01107
G1 X111.781 Y112.972 E235.49655
G1 X111.781 Y142.747 E236.98203
G0 F6000 X112.181 Y142.347
;TYPE:WALL-OUTER
G1 F1200 X141.156 Y142.347 E238.4276
G1 X141.156 Y113.372 E239.87317
G1 X112.181 Y113.372 E241.31874
G1 X112.181 Y142.347 E242.76431
G0 F6000 X111.681 Y142.347
G0 X108.289 Y142.817
G0 X108.219 Y142.747
;TYPE:WALL-INNER
G1 F1200 X108.219 Y112.972 E244.24979
G1 X78.444 Y112.972 E245.73527
G1 X78.444 Y142.747 E247.22075
G1 X108.219 Y142.747 E248.70623
G0 F6000 X107.819 Y142.347
;TYPE:WALL-OUTER
G1 F1200 X107.819 Y113.372 E250.1518
G1 X78.844 Y113.372 E251.59737
G1 X78.844 Y142.347 E253.04294
G1 X107.819 Y142.347 E254.48851
G1 F1500 E247.98851
G0 F6000 X108.319 Y142.347
G0 X108.289 Y176.154
G0 X108.219 Y176.084
;TYPE:WALL-INNER
G1 F1500 E254.48851
G1 F1200 X108.219 Y146.309 E255.97399
G1 X78.444 Y146.309 E257.45947
G1 X78.444 Y176.084 E258.94495
G1 X108.219 Y176.084 E260.43043
G0 F6000 X107.819 Y175.684
;TYPE:WALL-OUTER
