;FLAVOR:Marlin
;TIME:14584
;Filament used: 20.682m
;Layer height: 0.3
;MINX:31.134
;MINY:32.452
;MINZ:0.3
;MAXX:188.866
;MAXY:187.548
;MAXZ:18.9
;Generated with Cura_SteamEngine 4.4.1
M140 S60
M105
M190 S60
M104 S200
M105
M109 S200
M82 ;absolute extrusion mode
M201 X500.00 Y500.00 Z100.00 E5000.00 ;Setup machine max acceleration
M203 X500.00 Y500.00 Z10.00 E50.00 ;Setup machine max feedrate
M204 P500.00 R1000.00 T500.00 ;Setup Print/Retract/Travel acceleration
M205 X8.00 Y8.00 Z0.40 E5.00 ;Setup Jerk
M220 S100 ;Reset Feedrate
M221 S100 ;Reset Flowrate

G28 ;Home

G92 E0 ;Reset Extruder
G1 Z2.0 F3000 ;Move Z Axis up
G1 X10.1 Y20 Z0.28 F5000.0 ;Move to start position
G1 X10.1 Y200.0 Z0.28 F1500.0 E15 ;Draw the first line
G1 X10.4 Y200.0 Z0.28 F5000.0 ;Move to side a little
G1 X10.4 Y20 Z0.28 F1500.0 E30 ;Draw the second line
G92 E0 ;Reset Extruder
G1 Z2.0 F3000 ;Move Z Axis up

G92 E0
G92 E0
G1 F1500 E-6.5
;LAYER_COUNT:63
;LAYER:0
M106 S76.5
G0 F6000 X34.332 Y35.716 Z0.3
;TYPE:SKIRT
G1 F1500 E0
G1 F1200 X35.02 Y35.079 E0.04678
G1 X35.76 Y34.503 E0.09356
G1 X36.546 Y33.991 E0.14036
G1 X37.373 Y33.549 E0.18714
G1 X38.235 Y33.179 E0.23394
G1 X39.125 Y32.883 E0.28074
G1 X40.037 Y32.665 E0.32752
G1 X40.964 Y32.524 E0.3743
G1 X41.835 Y32.465 E0.41785
G1 X42.156 Y32.456 E0.43387
G1 X42.464 Y32.452 E0.44924
G1 X177.159 Y32.452 E7.1692
G1 X177.317 Y32.453 E7.17709
G1 X178.015 Y32.463 E7.21191
G1 X178.951 Y32.517 E7.25869
G1 X179.879 Y32.649 E7.30545
G1 X180.793 Y32.861 E7.35226
G1 X181.685 Y33.15 E7.39904
G1 X182.55 Y33.513 E7.44584
G1 X183.38 Y33.949 E7.49262
G1 X184.171 Y34.454 E7.53944
G1 X184.915 Y35.025 E7.58623
G1 X185.608 Y35.657 E7.63302
G1 X186.245 Y36.345 E7.6798
G1 X186.82 Y37.086 E7.72659
G1 X187.331 Y37.872 E7.77336
G1 X187.773 Y38.7 E7.82019
G1 X188.142 Y39.562 E7.86697
G1 X188.437 Y40.452 E7.91375
G1 X188.655 Y41.364 E7.96053
G1 X188.795 Y42.292 E8.00735
G1 X188.853 Y43.153 E8.0504
G1 X188.862 Y43.473 E8.06637
G1 X188.866 Y43.782 E8.08179
G1 X188.866 Y175.812 E14.66879
G1 X188.865 Y175.948 E14.67558
G1 X188.856 Y176.675 E14.71185
G1 X188.805 Y177.612 E14.75867
G1 X188.673 Y178.54 E14.80543
G1 X188.464 Y179.454 E14.85221
G1 X188.177 Y180.347 E14.89901
G1 X187.815 Y181.213 E14.94583
G1 X187.381 Y182.044 E14.99261
G1 X186.877 Y182.835 E15.0394
G1 X186.308 Y183.58 E15.08617
G1 X185.677 Y184.275 E15.133
G1 X184.99 Y184.913 E15.17978
G1 X184.251 Y185.49 E15.22655
G1 X183.465 Y186.002 E15.27335
G1 X182.639 Y186.445 E15.32011
G1 X181.777 Y186.817 E15.36695
G1 X180.888 Y187.113 E15.4137
G1 X179.976 Y187.333 E15.4605
G1 X179.049 Y187.474 E15.50728
G1 X178.165 Y187.535 E15.55149
G1 X177.844 Y187.544 E15.56751
G1 X177.536 Y187.548 E15.58288
G1 X42.841 Y187.548 E22.30284
G1 X42.699 Y187.547 E22.30993
G1 X42.001 Y187.538 E22.34475
G1 X41.065 Y187.486 E22.39152
G1 X40.136 Y187.354 E22.43833
G1 X39.222 Y187.144 E22.48512
G1 X38.329 Y186.857 E22.53192
G1 X37.464 Y186.494 E22.57872
G1 X36.633 Y186.06 E22.62549
G1 X35.842 Y185.556 E22.67229
G1 X35.097 Y184.986 E22.71908
G1 X34.403 Y184.355 E22.76588
G1 X33.766 Y183.668 E22.81262
G1 X33.189 Y182.928 E22.85944
G1 X32.677 Y182.142 E22.90624
G1 X32.234 Y181.315 E22.95304
G1 X31.863 Y180.454 E22.99982
G1 X31.567 Y179.564 E23.04661
G1 X31.348 Y178.652 E23.0934
G1 X31.207 Y177.725 E23.14018
G1 X31.147 Y176.836 E23.18464
G1 X31.138 Y176.503 E23.20126
G1 X31.134 Y176.206 E23.21607
G1 X31.134 Y44.126 E29.80557
G1 X31.135 Y43.977 E29.81301
G1 X31.144 Y43.312 E29.84619
G1 X31.197 Y42.376 E29.89296
G1 X31.329 Y41.447 E29.93977
G1 X31.54 Y40.533 E29.98657
G1 X31.828 Y39.641 E30.03333
G1 X32.191 Y38.776 E30.08014
G1 X32.626 Y37.945 E30.12693
G1 X33.13 Y37.155 E30.17368
G1 X33.7 Y36.41 E30.22048
G1 X34.332 Y35.716 E30.26731
G0 F6000 X34.723 Y35.891
G1 F1200 X35.408 Y35.275 E30.31327
G1 X36.144 Y34.722 E30.3592
G1 X36.925 Y34.234 E30.40515
G1 X37.745 Y33.816 E30.45106
G1 X38.599 Y33.471 E30.49702
G1 X39.479 Y33.201 E30.54294
G1 X40.379 Y33.009 E30.58885
G1 X41.293 Y32.895 E30.6348
G1 X41.846 Y32.865 E30.66243
G1 X42.167 Y32.856 E30.67845
G1 X42.464 Y32.852 E30.69327
G1 X177.159 Y32.852 E37.41323
G1 X177.311 Y32.853 E37.42082
G1 X178.009 Y32.863 E37.45564
G1 X178.928 Y32.916 E37.50157
G1 X179.839 Y33.049 E37.5475
G1 X180.735 Y33.26 E37.59343
G1 X181.609 Y33.548 E37.63934
G1 X182.456 Y33.911 E37.68531
G1 X183.267 Y34.346 E37.73122
G1 X184.037 Y34.85 E37.77714
G1 X184.761 Y35.419 E37.82308
G1 X185.433 Y36.049 E37.86903
G1 X186.048 Y36.734 E37.91496
G1 X186.601 Y37.47 E37.96089
G1 X187.088 Y38.251 E38.00681
G1 X187.505 Y39.072 E38.05275
G1 X187.85 Y39.926 E38.0987
G1 X188.119 Y40.806 E38.14461
G1 X188.311 Y41.707 E38.19057
G1 X188.424 Y42.62 E38.23647
G1 X188.453 Y43.164 E38.26365
G1 X188.462 Y43.484 E38.27962
G1 X188.466 Y43.782 E38.29449
G1 X188.466 Y175.812 E44.88149
G1 X188.465 Y175.943 E44.88802
G1 X188.456 Y176.67 E44.9243
G1 X188.405 Y177.589 E44.97022
G1 X188.274 Y178.501 E45.01618
G1 X188.064 Y179.397 E45.0621
G1 X187.778 Y180.272 E45.10802
G1 X187.417 Y181.119 E45.15396
G1 X186.983 Y181.931 E45.19989
G1 X186.481 Y182.703 E45.24583
G1 X185.913 Y183.428 E45.29178
G1 X185.285 Y184.101 E45.33771
G1 X184.601 Y184.717 E45.38363
G1 X183.866 Y185.271 E45.42955
G1 X183.086 Y185.76 E45.47548
G1 X182.266 Y186.179 E45.52142
G1 X181.413 Y186.525 E45.56735
G1 X180.533 Y186.796 E45.61328
G1 X179.633 Y186.989 E45.65921
G1 X178.719 Y187.104 E45.70516
G1 X178.154 Y187.135 E45.73339
G1 X177.833 Y187.144 E45.74942
G1 X177.536 Y187.148 E45.76423
G1 X42.841 Y187.148 E52.4842
G1 X42.704 Y187.147 E52.49103
G1 X42.006 Y187.138 E52.52586
G1 X41.087 Y187.086 E52.57178
G1 X40.176 Y186.955 E52.6177
G1 X39.28 Y186.745 E52.66361
G1 X38.405 Y186.458 E52.70955
G1 X37.558 Y186.096 E52.75551
G1 X36.746 Y185.662 E52.80144
G1 X35.975 Y185.16 E52.84734
G1 X35.25 Y184.592 E52.89329
G1 X34.577 Y183.963 E52.93925
G1 X33.962 Y183.279 E52.98514
G1 X33.408 Y182.544 E53.03106
G1 X32.92 Y181.763 E53.077
G1 X32.501 Y180.943 E53.12294
G1 X32.155 Y180.09 E53.16887
G1 X31.885 Y179.21 E53.21479
G1 X31.692 Y178.309 E53.26076
G1 X31.578 Y177.396 E53.30667
G1 X31.547 Y176.825 E53.33519
G1 X31.538 Y176.492 E53.35181
G1 X31.534 Y176.206 E53.36608
G1 X31.534 Y44.126 E59.95558
G1 X31.535 Y43.983 E59.96272
G1 X31.544 Y43.318 E59.9959
G1 X31.596 Y42.398 E60.04187
G1 X31.728 Y41.487 E60.08779
G1 X31.939 Y40.591 E60.13372
G1 X32.226 Y39.716 E60.17966
G1 X32.589 Y38.87 E60.22559
G1 X33.023 Y38.058 E60.27152
G1 X33.526 Y37.287 E60.31745
G1 X34.095 Y36.563 E60.36339
G1 X34.723 Y35.891 E60.40928
G0 F6000 X35.115 Y36.069
G1 F1200 X35.796 Y35.476 E60.45433
G1 X36.528 Y34.946 E60.49942
G1 X37.303 Y34.483 E60.54446
G1 X38.116 Y34.09 E60.58951
G1 X38.961 Y33.77 E60.63459
G1 X39.83 Y33.527 E60.6796
G1 X40.718 Y33.361 E60.72467
G1 X41.857 Y33.265 E60.7817
G1 X42.178 Y33.256 E60.79772
G1 X42.464 Y33.252 E60.81199
G1 X177.159 Y33.252 E67.53195
G1 X177.305 Y33.253 E67.53924
G1 X178.003 Y33.263 E67.57406
G1 X178.905 Y33.316 E67.61914
G1 X179.798 Y33.448 E67.66418
G1 X180.676 Y33.659 E67.70923
G1 X181.532 Y33.947 E67.75429
G1 X182.359 Y34.309 E67.79933
G1 X183.151 Y34.744 E67.84441
G1 X183.902 Y35.246 E67.88947
G1 X184.605 Y35.813 E67.93453
G1 X185.255 Y36.44 E67.97959
G1 X185.847 Y37.122 E68.02464
G1 X186.377 Y37.853 E68.06969
G1 X186.839 Y38.629 E68.11475
G1 X187.232 Y39.442 E68.1598
G1 X187.55 Y40.287 E68.20484
G1 X187.793 Y41.157 E68.24991
G1 X187.958 Y42.045 E68.29497
G1 X188.053 Y43.175 E68.35154
G1 X188.062 Y43.495 E68.36752
G1 X188.066 Y43.782 E68.38184
G1 X188.066 Y175.812 E74.96884
G1 X188.065 Y175.938 E74.97513
G1 X188.056 Y176.665 E75.0114
G1 X188.005 Y177.567 E75.05647
G1 X187.874 Y178.461 E75.10155
G1 X187.665 Y179.339 E75.14658
G1 X187.379 Y180.196 E75.19165
G1 X187.018 Y181.024 E75.23671
G1 X186.586 Y181.816 E75.28172
G1 X186.085 Y182.568 E75.3268
G1 X185.519 Y183.272 E75.37187
G1 X184.894 Y183.923 E75.41689
G1 X184.213 Y184.517 E75.46198
G1 X183.482 Y185.048 E75.50705
G1 X182.708 Y185.512 E75.55208
G1 X181.895 Y185.906 E75.59715
G1 X181.051 Y186.226 E75.64218
G1 X180.181 Y186.471 E75.68727
G1 X179.294 Y186.637 E75.7323
G1 X178.143 Y186.735 E75.78993
G1 X177.822 Y186.744 E75.80595
G1 X177.536 Y186.748 E75.82022
G1 X42.841 Y186.748 E82.54018
G1 X42.709 Y186.747 E82.54676
G1 X42.011 Y186.738 E82.58159
G1 X41.11 Y186.687 E82.62661
G1 X40.216 Y186.555 E82.6717
G1 X39.338 Y186.346 E82.71673
G1 X38.481 Y186.059 E82.76182
G1 X37.654 Y185.698 E82.80684
G1 X36.861 Y185.265 E82.85191
G1 X36.11 Y184.764 E82.89695
G1 X35.406 Y184.198 E82.94202
G1 X34.755 Y183.572 E82.98708
G1 X34.162 Y182.891 E83.03213
G1 X33.632 Y182.16 E83.07717
G1 X33.168 Y181.385 E83.12224
G1 X32.774 Y180.572 E83.16731
G1 X32.454 Y179.728 E83.21234
G1 X32.21 Y178.858 E83.25742
G1 X32.044 Y177.97 E83.30249
G1 X31.947 Y176.815 E83.36032
G1 X31.938 Y176.482 E83.37694
G1 X31.934 Y176.206 E83.39071
G1 X31.934 Y44.126 E89.98021
G1 X31.935 Y43.988 E89.98709
G1 X31.944 Y43.323 E90.02027
G1 X31.996 Y42.421 E90.06535
G1 X32.128 Y41.528 E90.11038
G1 X32.338 Y40.65 E90.15542
G1 X32.625 Y39.793 E90.20051
G1 X32.987 Y38.966 E90.24555
G1 X33.42 Y38.174 E90.29058
G1 X33.922 Y37.423 E90.33565
G1 X34.489 Y36.719 E90.38075
G1 X35.115 Y36.069 E90.42577
G1 F1500 E83.92577
;MESH:c191e48e-397e-4c04-98a0-0474ea257324.stl
G0 F6000 X45.181 Y49.253
G0 X43.876 Y49.253
G0 X43.888 Y74.782
G0 X73.719 Y78.289
G0 X77.225 Y108.12
G0 X107.056 Y111.626
G0 X110.563 Y141.457
G0 X140.394 Y144.964
G0 X143.858 Y174.837
G0 X143.928 Y174.767
;TYPE:WALL-INNER
G1 F1500 E90.42577
G1 F1200 X173.703 Y174.767 E91.91125
G1 X173.703 Y144.992 E93.39673
G1 X143.928 Y144.992 E94.88221
G1 X143.928 Y174.767 E96.3677
G0 F6000 X144.328 Y174.367
;TYPE:WALL-OUTER
G1 F1200 X173.303 Y174.367 E97.81326
G1 X173.303 Y145.392 E99.25883
G1 X144.328 Y145.392 E100.7044
G1 X144.328 Y174.367 E102.14997
G1 F1500 E95.64997
G0 F6000 X143.828 Y174.367
G0 X143.858 Y74.824
G0 X143.928 Y74.754
;TYPE:WALL-INNER
G1 F1500 E102.14997
G1 F1200 X173.703 Y74.754 E103.63545
G1 X173.703 Y44.979 E105.12093
G1 X143.928 Y44.979 E106.60641
G1 X143.928 Y74.754 E108.09189
G0 F6000 X144.328 Y74.354
;TYPE:WALL-OUTER
G1 F1200 X173.303 Y74.354 E109.53746
G1 X173.303 Y45.379 E110.98303
G1 X144.328 Y45.379 E112.4286
G1 X144.328 Y74.354 E113.87417
G1 F1500 E107.37417
G0 F6000 X143.828 Y74.354
G0 X140.394 Y74.782
G0 X110.521 Y74.824
G0 X110.591 Y74.754
;TYPE:WALL-INNER
G1 F1500 E113.87417
G1 F1200 X140.366 Y74.754 E115.35965
G1 X140.366 Y44.979 E116.84513
G1 X110.591 Y44.979 E118.33061
G1 X110.591 Y74.754 E119.81609
G0 F6000 X110.991 Y74.354
;TYPE:WALL-OUTER
G1 F1200 X139.966 Y74.354 E121.26166
G1 X139.966 Y45.379 E122.70723
G1 X110.991 Y45.379 E124.1528
G1 X110.991 Y74.354 E125.59836
G0 F6000 X110.491 Y74.354
G0 X107.098 Y74.824
G0 X107.028 Y74.754
;TYPE:WALL-INNER
G1 F1200 X107.028 Y44.979 E127.08385
G1 X77.253 Y44.979 E128.56933
G1 X77.253 Y74.754 E130.05481
G1 X107.028 Y74.754 E131.54029
G0 F6000 X106.628 Y74.354
;TYPE:WALL-OUTER
G1 F1200 X106.628 Y45.379 E132.98586
G1 X77.653 Y45.379 E134.43143
G1 X77.653 Y74.354 E135.87699
G1 X106.628 Y74.354 E137.32256
G1 F1500 E130.82256
G0 F6000 X107.128 Y74.354
G0 X107.056 Y74.782
G0 X73.761 Y74.824
G0 X73.691 Y74.754
;TYPE:WALL-INNER
G1 F1500 E137.32256
G1 F1200 X73.691 Y44.979 E138.80804
G1 X43.916 Y44.979 E140.29352
G1 X43.916 Y74.754 E141.779
G1 X73.691 Y74.754 E143.26449
G0 F6000 X73.291 Y74.354
;TYPE:WALL-OUTER
G1 F1200 X73.291 Y45.379 E144.71005
G1 X44.316 Y45.379 E146.15562
G1 X44.316 Y74.354 E147.60119
G1 X73.291 Y74.354 E149.04676
G1 F1500 E142.54676
G0 F6000 X73.791 Y74.354
G0 X73.761 Y108.162
G0 X73.691 Y108.092
;TYPE:WALL-INNER
G1 F1500 E149.04676
G1 F1200 X73.691 Y78.317 E150.53224
G1 X43.916 Y78.317 E152.01772
G1 X43.916 Y108.092 E153.5032
G1 X73.691 Y108.092 E154.98868
G0 F6000 X73.291 Y107.692
;TYPE:WALL-OUTER
G1 F1200 X73.291 Y78.717 E156.43425
G1 X44.316 Y78.717 E157.87982
G1 X44.316 Y107.692 E159.32539
G1 X73.291 Y107.692 E160.77096
G1 F1500 E154.27096
G0 F6000 X73.791 Y107.692
G0 X77.225 Y108.12
G0 X107.098 Y108.162
G0 X107.028 Y108.092
;TYPE:WALL-INNER
G1 F1500 E160.77096
G1 F1200 X107.028 Y78.317 E162.25644
G1 X77.253 Y78.317 E163.74192
G1 X77.253 Y108.092 E165.2274
G1 X107.028 Y108.092 E166.71288
G0 F6000 X106.628 Y107.692
;TYPE:WALL-OUTER
G1 F1200 X106.628 Y78.717 E168.15845
G1 X77.653 Y78.717 E169.60402
G1 X77.653 Y107.692 E171.04959
G1 X106.628 Y107.692 E172.49516
G0 F6000 X107.128 Y107.692
G0 X110.521 Y108.162
G0 X110.591 Y108.092
;TYPE:WALL-INNER
G1 F1200 X140.366 Y108.092 E173.98064
G1 X140.366 Y78.317 E175.46612
G1 X110.591 Y78.317 E176.9516
G1 X110.591 Y108.092 E178.43708
G0 F6000 X110.991 Y107.692
;TYPE:WALL-OUTER
G1 F1200 X139.966 Y107.692 E179.88265
G1 X139.966 Y78.717 E181.32822
G1 X110.991 Y78.717 E182.77378
G1 X110.991 Y107.692 E184.21935
G1 F1500 E177.71935
G0 F6000 X110.491 Y107.692
G0 X110.563 Y108.12
G0 X143.858 Y108.162
G0 X143.928 Y108.092
;TYPE:WALL-INNER
G1 F1500 E184.21935
G1 F1200 X173.703 Y108.092 E185.70483
G1 X173.703 Y78.317 E187.19031
G1 X143.928 Y78.317 E188.6758
G1 X143.928 Y108.092 E190.16128
G0 F6000 X144.328 Y107.692
;TYPE:WALL-OUTER
G1 F1200 X173.303 Y107.692 E191.60684
G1 X173.303 Y78.717 E193.05241
G1 X144.328 Y78.717 E194.49798
G1 X144.328 Y107.692 E195.94355
G1 F1500 E189.44355
G0 F6000 X143.828 Y107.692
G0 X143.858 Y141.499
G0 X143.928 Y141.429
;TYPE:WALL-INNER
G1 F1500 E195.94355
G1 F1200 X173.703 Y141.429 E197.42903
G1 X173.703 Y111.654 E198.91451
G1 X143.928 Y111.654 E200.39999
G1 X143.928 Y141.429 E201.88547
G0 F6000 X144.328 Y141.029
;TYPE:WALL-OUTER
G1 F1200 X173.303 Y141.029 E203.33104
G1 X173.303 Y112.054 E204.77661
G1 X144.328 Y112.054 E206.22218
G1 X144.328 Y141.029 E207.66775
G1 F1500 E201.16775
G0 F6000 X143.828 Y141.029
G0 X140.394 Y141.457
G0 X110.521 Y141.499
G0 X110.591 Y141.429
;TYPE:WALL-INNER
G1 F1500 E207.66775
G1 F1200 X140.366 Y141.429 E209.15323
G1 X140.366 Y111.654 E210.63871
G1 X110.591 Y111.654 E212.12419
G1 X110.591 Y141.429 E213.60967
G0 F6000 X110.991 Y141.029
;TYPE:WALL-OUTER
G1 F1200 X139.966 Y141.029 E215.05524
G1 X139.966 Y112.054 E216.50081
G1 X110.991 Y112.054 E217.94638
G1 X110.991 Y141.029 E219.39195
G0 F6000 X110.491 Y141.029
G0 X107.098 Y141.499
G0 X107.028 Y141.429
;TYPE:WALL-INNER
G1 F1200 X107.028 Y111.654 E220.87743
G1 X77.253 Y111.654 E222.36291
G1 X77.253 Y141.429 E223.84839
G1 X107.028 Y141.429 E225.33387
G0 F6000 X106.628 Y141.029
;TYPE:WALL-OUTER
G1 F1200 X106.628 Y112.054 E226.77944
G1 X77.653 Y112.054 E228.22501
G1 X77.653 Y141.029 E229.67057
G1 X106.628 Y141.029 E231.11614
G1 F1500 E224.61614
G0 F6000 X107.128 Y141.029
G0 X107.056 Y141.457
G0 X73.761 Y141.499
G0 X73.691 Y141.429
;TYPE:WALL-INNER
G1 F1500 E231.11614
G1 F1200 X73.691 Y111.654 E232.60162
G1 X43.916 Y111.654 E234.0871
G1 X43.916 Y141.429 E235.57259
G1 X73.691 Y141.429 E237.05807
G0 F6000 X73.291 Y141.029
;TYPE:WALL-OUTER
G1 F1200 X73.291 Y112.054 E238.50364
G1 X44.316 Y112.054 E239.9492
G1 X44.316 Y141.029 E241.39477
G1 X73.291 Y141.029 E242.84034
G1 F1500 E236.34034
G0 F6000 X73.791 Y141.029
G0 X73.761 Y174.837
G0 X73.691 Y174.767
;TYPE:WALL-INNER
G1 F1500 E242.84034
G1 F1200 X73.691 Y144.992 E244.32582
G1 X43.916 Y144.992 E245.8113
G1 X43.916 Y174.767 E247.29678
G1 X73.691 Y174.767 E248.78226
G0 F6000 X73.291 Y174.367
;TYPE:WALL-OUTER
G1 F1200 X73.291 Y145.392 E250.22783
G1 X44.316 Y145.392 E251.6734
G1 X44.316 Y174.367 E253.11897
G1 X73.291 Y174.367 E254.56454
G1 F1500 E248.06454
G0 F6000 X73.791 Y174.367
G0 X77.225 Y174.795
G0 X107.098 Y174.837
G0 X107.028 Y174.767
;TYPE:WALL-INNER
