;FLAVOR:Marlin
;TIME:14269
;Filament used: 20.0183m
;Layer height: 0.3
;MINX:32.579
;MINY:32.452
;MINZ:0.3
;MAXX:187.421
;MAXY:187.548
;MAXZ:18.9
;Generated with Cura_SteamEngine 4.4.1
M140 S60
M105
M190 S60
M104 S200
M105
M109 S200
M82 ;absolute extrusion mode
M201 X500.00 Y500.00 Z100.00 E5000.00 ;Setup machine max acceleration
M203 X500.00 Y500.00 Z10.00 E50.00 ;Setup machine max feedrate
M204 P500.00 R1000.00 T500.00 ;Setup Print/Retract/Travel acceleration
M205 X8.00 Y8.00 Z0.40 E5.00 ;Setup Jerk
M220 S100 ;Reset Feedrate
M221 S100 ;Reset Flowrate

G28 ;Home

G92 E0 ;Reset Extruder
G1 Z2.0 F3000 ;Move Z Axis up
G1 X10.1 Y20 Z0.28 F5000.0 ;Move to start position
G1 X10.1 Y200.0 Z0.28 F1500.0 E15 ;Draw the first line
G1 X10.4 Y200.0 Z0.28 F5000.0 ;Move to side a little
G1 X10.4 Y20 Z0.28 F1500.0 E30 ;Draw the second line
G92 E0 ;Reset Extruder
G1 Z2.0 F3000 ;Move Z Axis up

G92 E0
G92 E0
G1 F1500 E-6.5
;LAYER_COUNT:63
;LAYER:0
M106 S76.5
G0 F6000 X35.777 Y35.716 Z0.3
;TYPE:SKIRT
G1 F1500 E0
G1 F1200 X36.465 Y35.079 E0.04678
G1 X37.205 Y34.503 E0.09356
G1 X37.991 Y33.991 E0.14036
G1 X38.818 Y33.549 E0.18714
G1 X39.68 Y33.179 E0.23394
G1 X40.57 Y32.883 E0.28074
G1 X41.482 Y32.665 E0.32752
G1 X42.409 Y32.524 E0.3743
G1 X43.28 Y32.465 E0.41785
G1 X43.601 Y32.456 E0.43387
G1 X43.909 Y32.452 E0.44924
G1 X175.714 Y32.452 E7.02502
G1 X175.872 Y32.453 E7.0329
G1 X176.57 Y32.463 E7.06773
G1 X177.506 Y32.517 E7.1145
G1 X178.434 Y32.649 E7.16127
G1 X179.348 Y32.861 E7.20808
G1 X180.24 Y33.15 E7.25486
G1 X181.105 Y33.513 E7.30166
G1 X181.935 Y33.949 E7.34843
G1 X182.726 Y34.454 E7.39525
G1 X183.47 Y35.025 E7.44204
G1 X184.163 Y35.657 E7.48884
G1 X184.8 Y36.345 E7.53561
G1 X185.375 Y37.086 E7.58241
G1 X185.886 Y37.872 E7.62918
G1 X186.328 Y38.7 E7.67601
G1 X186.697 Y39.562 E7.72279
G1 X186.992 Y40.452 E7.76956
G1 X187.21 Y41.364 E7.81635
G1 X187.35 Y42.292 E7.86317
G1 X187.408 Y43.153 E7.90622
G1 X187.417 Y43.473 E7.92219
G1 X187.421 Y43.782 E7.93761
G1 X187.421 Y175.812 E14.52461
G1 X187.42 Y175.948 E14.5314
G1 X187.411 Y176.675 E14.56767
G1 X187.36 Y177.612 E14.61449
G1 X187.228 Y178.54 E14.66125
G1 X187.019 Y179.454 E14.70803
G1 X186.732 Y180.347 E14.75482
G1 X186.37 Y181.213 E14.80165
G1 X185.936 Y182.044 E14.84842
G1 X185.432 Y182.835 E14.89522
G1 X184.863 Y183.58 E14.94199
G1 X184.232 Y184.275 E14.98882
G1 X183.545 Y184.913 E15.03559
G1 X182.806 Y185.49 E15.08237
G1 X182.02 Y186.002 E15.12917
G1 X181.194 Y186.445 E15.17593
G1 X180.332 Y186.817 E15.22277
G1 X179.443 Y187.113 E15.26952
G1 X178.531 Y187.333 E15.31632
G1 X177.604 Y187.474 E15.3631
G1 X176.72 Y187.535 E15.40731
G1 X176.399 Y187.544 E15.42333
G1 X176.091 Y187.548 E15.4387
G1 X44.286 Y187.548 E22.01448
G1 X44.144 Y187.547 E22.02156
G1 X43.446 Y187.538 E22.05639
G1 X42.51 Y187.486 E22.10316
G1 X41.581 Y187.354 E22.14997
G1 X40.667 Y187.144 E22.19676
G1 X39.774 Y186.857 E22.24355
G1 X38.909 Y186.494 E22.29035
G1 X38.078 Y186.06 E22.33713
G1 X37.287 Y185.556 E22.38392
G1 X36.542 Y184.986 E22.43072
G1 X35.848 Y184.355 E22.47751
G1 X35.211 Y183.668 E22.52426
G1 X34.634 Y182.928 E22.57107
G1 X34.122 Y182.142 E22.61787
G1 X33.679 Y181.315 E22.66468
G1 X33.308 Y180.454 E22.71145
G1 X33.012 Y179.564 E22.75824
G1 X32.793 Y178.652 E22.80504
G1 X32.652 Y177.725 E22.85182
G1 X32.592 Y176.836 E22.89627
G1 X32.583 Y176.503 E22.91289
G1 X32.579 Y176.206 E22.92771
G1 X32.579 Y44.126 E29.51721
G1 X32.58 Y43.977 E29.52464
G1 X32.589 Y43.312 E29.55782
G1 X32.642 Y42.376 E29.60459
G1 X32.774 Y41.447 E29.65141
G1 X32.985 Y40.533 E29.6982
G1 X33.273 Y39.641 E29.74497
G1 X33.636 Y38.776 E29.79177
G1 X34.071 Y37.945 E29.83857
G1 X34.575 Y37.155 E29.88532
G1 X35.145 Y36.41 E29.93212
G1 X35.777 Y35.716 E29.97894
G0 F6000 X36.168 Y35.891
G1 F1200 X36.853 Y35.275 E30.02491
G1 X37.589 Y34.722 E30.07083
G1 X38.37 Y34.234 E30.11678
G1 X39.19 Y33.816 E30.1627
G1 X40.044 Y33.471 E30.20865
G1 X40.924 Y33.201 E30.25457
G1 X41.824 Y33.009 E30.30048
G1 X42.738 Y32.895 E30.34644
G1 X43.291 Y32.865 E30.37407
G1 X43.612 Y32.856 E30.39009
G1 X43.909 Y32.852 E30.40491
G1 X175.714 Y32.852 E36.98069
G1 X175.866 Y32.853 E36.98827
G1 X176.564 Y32.863 E37.0231
G1 X177.483 Y32.916 E37.06902
G1 X178.394 Y33.049 E37.11495
G1 X179.29 Y33.26 E37.16088
G1 X180.164 Y33.548 E37.20679
G1 X181.011 Y33.911 E37.25276
G1 X181.822 Y34.346 E37.29868
G1 X182.592 Y34.85 E37.34459
G1 X183.316 Y35.419 E37.39053
G1 X183.988 Y36.049 E37.43648
G1 X184.603 Y36.734 E37.48241
G1 X185.156 Y37.47 E37.52834
G1 X185.643 Y38.251 E37.57426
G1 X186.06 Y39.072 E37.6202
G1 X186.405 Y39.926 E37.66615
G1 X186.674 Y40.806 E37.71206
G1 X186.866 Y41.707 E37.75802
G1 X186.979 Y42.62 E37.80392
G1 X187.008 Y43.164 E37.8311
G1 X187.017 Y43.484 E37.84707
G1 X187.021 Y43.782 E37.86194
G1 X187.021 Y175.812 E44.44894
G1 X187.02 Y175.943 E44.45548
G1 X187.011 Y176.67 E44.49175
G1 X186.96 Y177.589 E44.53767
G1 X186.829 Y178.501 E44.58364
G1 X186.619 Y179.397 E44.62955
G1 X186.333 Y180.272 E44.67548
G1 X185.972 Y181.119 E44.72141
G1 X185.538 Y181.931 E44.76734
G1 X185.036 Y182.703 E44.81329
G1 X184.468 Y183.428 E44.85924
G1 X183.84 Y184.101 E44.90516
G1 X183.156 Y184.717 E44.95108
G1 X182.421 Y185.271 E44.997
G1 X181.641 Y185.76 E45.04293
G1 X180.821 Y186.179 E45.08887
G1 X179.968 Y186.525 E45.1348
G1 X179.088 Y186.796 E45.18074
G1 X178.188 Y186.989 E45.22666
G1 X177.274 Y187.104 E45.27262
G1 X176.709 Y187.135 E45.30085
G1 X176.388 Y187.144 E45.31687
G1 X176.091 Y187.148 E45.33169
G1 X44.286 Y187.148 E51.90746
G1 X44.149 Y187.147 E51.9143
G1 X43.451 Y187.138 E51.94913
G1 X42.532 Y187.086 E51.99505
G1 X41.621 Y186.955 E52.04097
G1 X40.725 Y186.745 E52.08688
G1 X39.85 Y186.458 E52.13282
G1 X39.003 Y186.096 E52.17878
G1 X38.191 Y185.662 E52.22471
G1 X37.42 Y185.16 E52.27061
G1 X36.695 Y184.592 E52.31656
G1 X36.022 Y183.963 E52.36252
G1 X35.407 Y183.279 E52.40841
G1 X34.853 Y182.544 E52.45433
G1 X34.365 Y181.763 E52.50027
G1 X33.946 Y180.943 E52.54621
G1 X33.6 Y180.09 E52.59214
G1 X33.33 Y179.21 E52.63806
G1 X33.137 Y178.309 E52.68403
G1 X33.023 Y177.396 E52.72993
G1 X32.992 Y176.825 E52.75846
G1 X32.983 Y176.492 E52.77508
G1 X32.979 Y176.206 E52.78935
G1 X32.979 Y44.126 E59.37885
G1 X32.98 Y43.983 E59.38599
G1 X32.989 Y43.318 E59.41917
G1 X33.041 Y42.398 E59.46514
G1 X33.173 Y41.487 E59.51106
G1 X33.384 Y40.591 E59.55699
G1 X33.671 Y39.716 E59.60293
G1 X34.034 Y38.87 E59.64886
G1 X34.468 Y38.058 E59.69479
G1 X34.971 Y37.287 E59.74072
G1 X35.54 Y36.563 E59.78666
G1 X36.168 Y35.891 E59.83255
G0 F6000 X36.56 Y36.069
G1 F1200 X37.241 Y35.476 E59.8776
G1 X37.973 Y34.946 E59.92269
G1 X38.748 Y34.483 E59.96772
G1 X39.561 Y34.09 E60.01278
G1 X40.406 Y33.77 E60.05785
G1 X41.275 Y33.527 E60.10287
G1 X42.163 Y33.361 E60.14794
G1 X43.302 Y33.265 E60.20497
G1 X43.623 Y33.256 E60.22099
G1 X43.909 Y33.252 E60.23526
G1 X175.714 Y33.252 E66.81104
G1 X175.86 Y33.253 E66.81832
G1 X176.558 Y33.263 E66.85315
G1 X177.46 Y33.316 E66.89823
G1 X178.353 Y33.448 E66.94326
G1 X179.231 Y33.659 E66.98831
G1 X180.087 Y33.947 E67.03337
G1 X180.914 Y34.309 E67.07841
G1 X181.706 Y34.744 E67.12349
G1 X182.457 Y35.246 E67.16856
G1 X183.16 Y35.813 E67.21362
G1 X183.81 Y36.44 E67.25868
G1 X184.402 Y37.122 E67.30373
G1 X184.932 Y37.853 E67.34878
G1 X185.394 Y38.629 E67.39383
G1 X185.787 Y39.442 E67.43889
G1 X186.105 Y40.287 E67.48393
G1 X186.348 Y41.157 E67.529
G1 X186.513 Y42.045 E67.57406
G1 X186.608 Y43.175 E67.63063
G1 X186.617 Y43.495 E67.6466
G1 X186.621 Y43.782 E67.66092
G1 X186.621 Y175.812 E74.24793
G1 X186.62 Y175.938 E74.25421
G1 X186.611 Y176.665 E74.29048
G1 X186.56 Y177.567 E74.33556
G1 X186.429 Y178.461 E74.38064
G1 X186.22 Y179.339 E74.42566
G1 X185.934 Y180.196 E74.47074
G1 X185.573 Y181.024 E74.5158
G1 X185.141 Y181.816 E74.56081
G1 X184.64 Y182.568 E74.60589
G1 X184.074 Y183.272 E74.65096
G1 X183.449 Y183.923 E74.69598
G1 X182.768 Y184.517 E74.74107
G1 X182.037 Y185.048 E74.78614
G1 X181.263 Y185.512 E74.83116
G1 X180.45 Y185.906 E74.87624
G1 X179.606 Y186.226 E74.92127
G1 X178.736 Y186.471 E74.96636
G1 X177.849 Y186.637 E75.01138
G1 X176.698 Y186.735 E75.06901
G1 X176.377 Y186.744 E75.08503
G1 X176.091 Y186.748 E75.0993
G1 X44.286 Y186.748 E81.67508
G1 X44.154 Y186.747 E81.68167
G1 X43.456 Y186.738 E81.71649
G1 X42.555 Y186.687 E81.76152
G1 X41.661 Y186.555 E81.8066
G1 X40.783 Y186.346 E81.85163
G1 X39.926 Y186.059 E81.89672
G1 X39.099 Y185.698 E81.94174
G1 X38.306 Y185.265 E81.98682
G1 X37.555 Y184.764 E82.03186
G1 X36.851 Y184.198 E82.07692
G1 X36.2 Y183.572 E82.12198
G1 X35.607 Y182.891 E82.16703
G1 X35.077 Y182.16 E82.21208
G1 X34.613 Y181.385 E82.25714
G1 X34.219 Y180.572 E82.30222
G1 X33.899 Y179.728 E82.34725
G1 X33.655 Y178.858 E82.39233
G1 X33.489 Y177.97 E82.4374
G1 X33.392 Y176.815 E82.49522
G1 X33.383 Y176.482 E82.51184
G1 X33.379 Y176.206 E82.52561
G1 X33.379 Y44.126 E89.11511
G1 X33.38 Y43.988 E89.122
G1 X33.389 Y43.323 E89.15518
G1 X33.441 Y42.421 E89.20025
G1 X33.573 Y41.528 E89.24529
G1 X33.783 Y40.65 E89.29033
G1 X34.07 Y39.793 E89.33542
G1 X34.432 Y38.966 E89.38046
G1 X34.865 Y38.174 E89.42549
G1 X35.367 Y37.423 E89.47056
G1 X35.934 Y36.719 E89.51565
G1 X36.56 Y36.069 E89.56068
G1 F1500 E83.06068
;MESH:4626987f-1403-4802-9a9c-2cd6315d53e4.stl
G0 F6000 X66.476 Y73.489
G0 X66.476 Y74.794
G0 X74.909 Y78.289
G0 X78.416 Y108.12
G0 X108.247 Y111.626
G0 X111.753 Y141.457
G0 X141.584 Y144.964
G0 X145.049 Y174.837
G0 X145.119 Y174.767
;TYPE:WALL-INNER
G1 F1500 E89.56068
G1 F1200 X174.894 Y174.767 E91.04616
G1 X174.894 Y144.992 E92.53164
G1 X145.119 Y144.992 E94.01712
G1 X145.119 Y174.767 E95.5026
G0 F6000 X145.519 Y174.367
;TYPE:WALL-OUTER
G1 F1200 X174.494 Y174.367 E96.94817
G1 X174.494 Y145.392 E98.39374
G1 X145.519 Y145.392 E99.83931
G1 X145.519 Y174.367 E101.28487
G1 F1500 E94.78487
G0 F6000 X145.019 Y174.367
G0 X141.584 Y144.964
G0 X111.753 Y141.457
G0 X108.247 Y111.626
G0 X78.416 Y108.12
G0 X74.951 Y74.824
G0 X74.881 Y74.754
;TYPE:WALL-INNER
G1 F1500 E101.28487
G1 F1200 X74.881 Y44.979 E102.77035
G1 X45.106 Y44.979 E104.25584
G1 X45.106 Y74.754 E105.74132
G1 X74.881 Y74.754 E107.2268
G0 F6000 X74.481 Y74.354
;TYPE:WALL-OUTER
G1 F1200 X74.481 Y45.379 E108.67237
G1 X45.506 Y45.379 E110.11793
G1 X45.506 Y74.354 E111.5635
G1 X74.481 Y74.354 E113.00907
G1 F1500 E106.50907
G0 F6000 X74.981 Y74.354
G0 X78.416 Y74.782
G0 X108.289 Y74.824
G0 X108.219 Y74.754
;TYPE:WALL-INNER
G1 F1500 E113.00907
G1 F1200 X108.219 Y44.979 E114.49455
G1 X78.444 Y44.979 E115.98003
G1 X78.444 Y74.754 E117.46551
G1 X108.219 Y74.754 E118.95099
G0 F6000 X107.819 Y74.354
;TYPE:WALL-OUTER
G1 F1200 X107.819 Y45.379 E120.39656
G1 X78.844 Y45.379 E121.84213
G1 X78.844 Y74.354 E123.2877
G1 X107.819 Y74.354 E124.73327
G0 F6000 X108.319 Y74.354
G0 X111.711 Y74.824
G0 X111.781 Y74.754
;TYPE:WALL-INNER
G1 F1200 X141.556 Y74.754 E126.21875
G1 X141.556 Y44.979 E127.70423
G1 X111.781 Y44.979 E129.18971
G1 X111.781 Y74.754 E130.67519
G0 F6000 X112.181 Y74.354
;TYPE:WALL-OUTER
G1 F1200 X141.156 Y74.354 E132.12076
G1 X141.156 Y45.379 E133.56633
G1 X112.181 Y45.379 E135.0119
G1 X112.181 Y74.354 E136.45747
G1 F1500 E129.95747
G0 F6000 X111.681 Y74.354
G0 X111.753 Y74.782
G0 X145.049 Y74.824
G0 X145.119 Y74.754
;TYPE:WALL-INNER
G1 F1500 E136.45747
G1 F1200 X174.894 Y74.754 E137.94295
G1 X174.894 Y44.979 E139.42843
G1 X145.119 Y44.979 E140.91391
G1 X145.119 Y74.754 E142.39939
G0 F6000 X145.519 Y74.354
;TYPE:WALL-OUTER
G1 F1200 X174.494 Y74.354 E143.84496
G1 X174.494 Y45.379 E145.29053
G1 X145.519 Y45.379 E146.7361
G1 X145.519 Y74.354 E148.18166
G1 F1500 E141.68166
G0 F6000 X145.019 Y74.354
G0 X145.049 Y108.162
G0 X145.119 Y108.092
;TYPE:WALL-INNER
G1 F1500 E148.18166
G1 F1200 X174.894 Y108.092 E149.66714
G1 X174.894 Y78.317 E151.15263
G1 X145.119 Y78.317 E152.63811
G1 X145.119 Y108.092 E154.12359
G0 F6000 X145.519 Y107.692
;TYPE:WALL-OUTER
G1 F1200 X174.494 Y107.692 E155.56916
G1 X174.494 Y78.717 E157.01472
G1 X145.519 Y78.717 E158.46029
G1 X145.519 Y107.692 E159.90586
G1 F1500 E153.40586
G0 F6000 X145.019 Y107.692
G0 X145.049 Y141.499
G0 X145.119 Y141.429
;TYPE:WALL-INNER
G1 F1500 E159.90586
G1 F1200 X174.894 Y141.429 E161.39134
G1 X174.894 Y111.654 E162.87682
G1 X145.119 Y111.654 E164.3623
G1 X145.119 Y141.429 E165.84778
G0 F6000 X145.519 Y141.029
;TYPE:WALL-OUTER
G1 F1200 X174.494 Y141.029 E167.29335
G1 X174.494 Y112.054 E168.73892
G1 X145.519 Y112.054 E170.18449
G1 X145.519 Y141.029 E171.63006
G1 F1500 E165.13006
G0 F6000 X145.019 Y141.029
G0 X141.584 Y141.457
G0 X108.289 Y141.499
G0 X108.219 Y141.429
;TYPE:WALL-INNER
G1 F1500 E171.63006
G1 F1200 X108.219 Y111.654 E173.11554
G1 X78.444 Y111.654 E174.60102
G1 X78.444 Y141.429 E176.0865
G1 X108.219 Y141.429 E177.57198
G0 F6000 X107.819 Y141.029
;TYPE:WALL-OUTER
G1 F1200 X107.819 Y112.054 E179.01755
G1 X78.844 Y112.054 E180.46312
G1 X78.844 Y141.029 E181.90869
G1 X107.819 Y141.029 E183.35426
G0 F6000 X108.319 Y141.029
G0 X111.711 Y141.499
G0 X111.781 Y141.429
;TYPE:WALL-INNER
G1 F1200 X141.556 Y141.429 E184.83974
G1 X141.556 Y111.654 E186.32522
G1 X111.781 Y111.654 E187.8107
G1 X111.781 Y141.429 E189.29618
G0 F6000 X112.181 Y141.029
;TYPE:WALL-OUTER
G1 F1200 X141.156 Y141.029 E190.74175
G1 X141.156 Y112.054 E192.18732
G1 X112.181 Y112.054 E193.63289
G1 X112.181 Y141.029 E195.07845
G1 F1500 E188.57845
G0 F6000 X111.681 Y141.029
G0 X111.711 Y108.162
G0 X111.781 Y108.092
;TYPE:WALL-INNER
G1 F1500 E195.07845
G1 F1200 X141.556 Y108.092 E196.56394
G1 X141.556 Y78.317 E198.04942
G1 X111.781 Y78.317 E199.5349
G1 X111.781 Y108.092 E201.02038
G0 F6000 X112.181 Y107.692
;TYPE:WALL-OUTER
G1 F1200 X141.156 Y107.692 E202.46595
G1 X141.156 Y78.717 E203.91151
G1 X112.181 Y78.717 E205.35708
G1 X112.181 Y107.692 E206.80265
G0 F6000 X111.681 Y107.692
G0 X108.289 Y108.162
G0 X108.219 Y108.092
;TYPE:WALL-INNER
G1 F1200 X108.219 Y78.317 E208.28813
G1 X78.444 Y78.317 E209.77361
G1 X78.444 Y108.092 E211.25909
G1 X108.219 Y108.092 E212.74458
G0 F6000 X107.819 Y107.692
;TYPE:WALL-OUTER
G1 F1200 X107.819 Y78.717 E214.19014
G1 X78.844 Y78.717 E215.63571
G1 X78.844 Y107.692 E217.08128
G1 X107.819 Y107.692 E218.52685
G1 F1500 E212.02685
G0 F6000 X108.319 Y107.692
G0 X108.247 Y108.12
G0 X74.951 Y108.162
G0 X74.881 Y108.092
;TYPE:WALL-INNER
G1 F1500 E218.52685
G1 F1200 X74.881 Y78.317 E220.01233
G1 X45.106 Y78.317 E221.49781
G1 X45.106 Y108.092 E222.98329
G1 X74.881 Y108.092 E224.46877
G0 F6000 X74.481 Y107.692
;TYPE:WALL-OUTER
G1 F1200 X74.481 Y78.717 E225.91434
G1 X45.506 Y78.717 E227.35991
G1 X45.506 Y107.692 E228.80548
G1 X74.481 Y107.692 E230.25105
G1 F1500 E223.75105
G0 F6000 X74.981 Y107.692
G0 X74.951 Y141.499
G0 X74.881 Y141.429
;TYPE:WALL-INNER
G1 F1500 E230.25105
G1 F1200 X74.881 Y111.654 E231.73653
G1 X45.106 Y111.654 E233.22201
G1 X45.106 Y141.429 E234.70749
G1 X74.881 Y141.429 E236.19297
G0 F6000 X74.481 Y141.029
;TYPE:WALL-OUTER
G1 F1200 X74.481 Y112.054 E237.63854
G1 X45.506 Y112.054 E239.08411
G1 X45.506 Y141.029 E240.52968
G1 X74.481 Y141.029 E241.97524
G1 F1500 E235.47524
G0 F6000 X74.981 Y141.029
G0 X74.951 Y174.837
G0 X74.881 Y174.767
;TYPE:WALL-INNER
G1 F1500 E241.97524
G1 F1200 X74.881 Y144.992 E243.46073
G1 X45.106 Y144.992 E244.94621
G1 X45.106 Y174.767 E246.43169
G1 X74.881 Y174.767 E247.91717
G0 F6000 X74.481 Y174.367
;TYPE:WALL-OUTER
G1 F1200 X74.481 Y145.392 E249.36274
G1 X45.506 Y145.392 E250.80831
G1 X45.506 Y174.367 E252.25387
G1 X74.481 Y174.367 E253.69944
G1 F1500 E247.19944
G0 F6000 X74.981 Y174.367
G0 X78.416 Y174.795
G0 X108.289 Y174.837
G0 X108.219 Y174.767
;TYPE:WALL-INNER
