;FLAVOR:Marlin
;TIME:15033
;Filament used: 21.2674m
;Layer height: 0.3
;MINX:31.134
;MINY:31.134
;MINZ:0.3
;MAXX:188.866
;MAXY:188.866
;MAXZ:18.9
;Generated with Cura_SteamEngine 4.4.1
M140 S60
M105
M190 S60
M104 S200
M105
M109 S200
M82 ;absolute extrusion mode
M201 X500.00 Y500.00 Z100.00 E5000.00 ;Setup machine max acceleration
M203 X500.00 Y500.00 Z10.00 E50.00 ;Setup machine max feedrate
M204 P500.00 R1000.00 T500.00 ;Setup Print/Retract/Travel acceleration
M205 X8.00 Y8.00 Z0.40 E5.00 ;Setup Jerk
M220 S100 ;Reset Feedrate
M221 S100 ;Reset Flowrate

G28 ;Home

G92 E0 ;Reset Extruder
G1 Z2.0 F3000 ;Move Z Axis up
G1 X10.1 Y20 Z0.28 F5000.0 ;Move to start position
G1 X10.1 Y200.0 Z0.28 F1500.0 E15 ;Draw the first line
G1 X10.4 Y200.0 Z0.28 F5000.0 ;Move to side a little
G1 X10.4 Y20 Z0.28 F1500.0 E30 ;Draw the second line
G92 E0 ;Reset Extruder
G1 Z2.0 F3000 ;Move Z Axis up

G92 E0
G92 E0
G1 F1500 E-6.5
;LAYER_COUNT:63
;LAYER:0
M107
G0 F6000 X34.332 Y34.398 Z0.3
;TYPE:SKIRT
G1 F1500 E0
G1 F1200 X35.02 Y33.761 E0.04678
G1 X35.76 Y33.185 E0.09356
G1 X36.546 Y32.673 E0.14036
G1 X37.373 Y32.231 E0.18714
G1 X38.235 Y31.861 E0.23394
G1 X39.125 Y31.565 E0.28074
G1 X40.037 Y31.347 E0.32752
G1 X40.964 Y31.206 E0.3743
G1 X41.835 Y31.147 E0.41785
G1 X42.156 Y31.138 E0.43387
G1 X42.464 Y31.134 E0.44924
G1 X177.159 Y31.134 E7.1692
G1 X177.317 Y31.135 E7.17709
G1 X178.015 Y31.145 E7.21191
G1 X178.951 Y31.199 E7.25869
G1 X179.879 Y31.331 E7.30545
G1 X180.793 Y31.543 E7.35226
G1 X181.685 Y31.832 E7.39904
G1 X182.55 Y32.195 E7.44584
G1 X183.38 Y32.631 E7.49262
G1 X184.171 Y33.136 E7.53944
G1 X184.915 Y33.707 E7.58623
G1 X185.608 Y34.339 E7.63302
G1 X186.245 Y35.027 E7.6798
G1 X186.82 Y35.768 E7.72659
G1 X187.331 Y36.554 E7.77336
G1 X187.773 Y37.382 E7.82019
G1 X188.142 Y38.244 E7.86697
G1 X188.437 Y39.134 E7.91375
G1 X188.655 Y40.046 E7.96053
G1 X188.795 Y40.974 E8.00735
G1 X188.853 Y41.835 E8.0504
G1 X188.862 Y42.155 E8.06637
G1 X188.866 Y42.464 E8.08179
G1 X188.866 Y177.13 E14.80031
G1 X188.865 Y177.266 E14.80709
G1 X188.856 Y177.993 E14.84336
G1 X188.805 Y178.93 E14.89018
G1 X188.673 Y179.858 E14.93694
G1 X188.464 Y180.772 E14.98372
G1 X188.177 Y181.665 E15.03052
G1 X187.815 Y182.531 E15.07734
G1 X187.381 Y183.362 E15.12412
G1 X186.877 Y184.153 E15.17091
G1 X186.308 Y184.898 E15.21768
G1 X185.677 Y185.593 E15.26451
G1 X184.99 Y186.231 E15.31129
G1 X184.251 Y186.808 E15.35806
G1 X183.465 Y187.32 E15.40486
G1 X182.639 Y187.763 E15.45162
G1 X181.777 Y188.135 E15.49846
G1 X180.888 Y188.431 E15.54521
G1 X179.976 Y188.651 E15.59201
G1 X179.049 Y188.792 E15.63879
G1 X178.165 Y188.853 E15.683
G1 X177.844 Y188.862 E15.69902
G1 X177.536 Y188.866 E15.71439
G1 X42.841 Y188.866 E22.43435
G1 X42.699 Y188.865 E22.44144
G1 X42.001 Y188.856 E22.47626
G1 X41.065 Y188.804 E22.52303
G1 X40.136 Y188.672 E22.56985
G1 X39.222 Y188.462 E22.61663
G1 X38.329 Y188.175 E22.66343
G1 X37.464 Y187.812 E22.71023
G1 X36.633 Y187.378 E22.757
G1 X35.842 Y186.874 E22.8038
G1 X35.097 Y186.304 E22.85059
G1 X34.403 Y185.673 E22.89739
G1 X33.766 Y184.986 E22.94413
G1 X33.189 Y184.246 E22.99095
G1 X32.677 Y183.46 E23.03775
G1 X32.234 Y182.633 E23.08455
G1 X31.863 Y181.772 E23.13133
G1 X31.567 Y180.882 E23.17812
G1 X31.348 Y179.97 E23.22491
G1 X31.207 Y179.043 E23.27169
G1 X31.147 Y178.154 E23.31615
G1 X31.138 Y177.821 E23.33277
G1 X31.134 Y177.524 E23.34758
G1 X31.134 Y42.808 E30.06859
G1 X31.135 Y42.659 E30.07603
G1 X31.144 Y41.994 E30.10921
G1 X31.197 Y41.058 E30.15598
G1 X31.329 Y40.129 E30.20279
G1 X31.54 Y39.215 E30.24959
G1 X31.828 Y38.323 E30.29636
G1 X32.191 Y37.458 E30.34316
G1 X32.626 Y36.627 E30.38995
G1 X33.13 Y35.837 E30.4367
G1 X33.7 Y35.092 E30.4835
G1 X34.332 Y34.398 E30.53033
G0 F6000 X34.723 Y34.573
G1 F1200 X35.408 Y33.957 E30.57629
G1 X36.144 Y33.404 E30.62222
G1 X36.925 Y32.916 E30.66817
G1 X37.745 Y32.498 E30.71408
G1 X38.599 Y32.153 E30.76004
G1 X39.479 Y31.883 E30.80596
G1 X40.379 Y31.691 E30.85187
G1 X41.293 Y31.577 E30.89782
G1 X41.846 Y31.547 E30.92545
G1 X42.167 Y31.538 E30.94148
G1 X42.464 Y31.534 E30.95629
G1 X177.159 Y31.534 E37.67625
G1 X177.311 Y31.535 E37.68384
G1 X178.009 Y31.545 E37.71867
G1 X178.928 Y31.598 E37.76459
G1 X179.839 Y31.731 E37.81052
G1 X180.735 Y31.942 E37.85645
G1 X181.609 Y32.23 E37.90236
G1 X182.456 Y32.593 E37.94833
G1 X183.267 Y33.028 E37.99425
G1 X184.037 Y33.532 E38.04016
G1 X184.761 Y34.101 E38.0861
G1 X185.433 Y34.731 E38.13205
G1 X186.048 Y35.416 E38.17798
G1 X186.601 Y36.152 E38.22391
G1 X187.088 Y36.933 E38.26983
G1 X187.505 Y37.754 E38.31577
G1 X187.85 Y38.608 E38.36172
G1 X188.119 Y39.488 E38.40763
G1 X188.311 Y40.389 E38.45359
G1 X188.424 Y41.302 E38.49949
G1 X188.453 Y41.846 E38.52667
G1 X188.462 Y42.166 E38.54264
G1 X188.466 Y42.464 E38.55751
G1 X188.466 Y177.13 E45.27602
G1 X188.465 Y177.261 E45.28256
G1 X188.456 Y177.988 E45.31883
G1 X188.405 Y178.907 E45.36475
G1 X188.274 Y179.819 E45.41072
G1 X188.064 Y180.715 E45.45663
G1 X187.778 Y181.59 E45.50256
G1 X187.417 Y182.437 E45.54849
G1 X186.983 Y183.249 E45.59442
G1 X186.481 Y184.021 E45.64037
G1 X185.913 Y184.746 E45.68632
G1 X185.285 Y185.419 E45.73224
G1 X184.601 Y186.035 E45.77816
G1 X183.866 Y186.589 E45.82408
G1 X183.086 Y187.078 E45.87001
G1 X182.266 Y187.497 E45.91595
G1 X181.413 Y187.843 E45.96188
G1 X180.533 Y188.114 E46.00782
G1 X179.633 Y188.307 E46.05374
G1 X178.719 Y188.422 E46.0997
G1 X178.154 Y188.453 E46.12793
G1 X177.833 Y188.462 E46.14395
G1 X177.536 Y188.466 E46.15877
G1 X42.841 Y188.466 E52.87873
G1 X42.704 Y188.465 E52.88556
G1 X42.006 Y188.456 E52.92039
G1 X41.087 Y188.404 E52.96631
G1 X40.176 Y188.273 E53.01223
G1 X39.28 Y188.063 E53.05814
G1 X38.405 Y187.776 E53.10408
G1 X37.558 Y187.414 E53.15004
G1 X36.746 Y186.98 E53.19597
G1 X35.975 Y186.478 E53.24187
G1 X35.25 Y185.91 E53.28782
G1 X34.577 Y185.281 E53.33378
G1 X33.962 Y184.597 E53.37967
G1 X33.408 Y183.862 E53.42559
G1 X32.92 Y183.081 E53.47153
G1 X32.501 Y182.261 E53.51748
G1 X32.155 Y181.408 E53.5634
G1 X31.885 Y180.528 E53.60932
G1 X31.692 Y179.627 E53.65529
G1 X31.578 Y178.714 E53.7012
G1 X31.547 Y178.143 E53.72973
G1 X31.538 Y177.81 E53.74635
G1 X31.534 Y177.524 E53.76062
G1 X31.534 Y42.808 E60.48162
G1 X31.535 Y42.665 E60.48876
G1 X31.544 Y42 E60.52194
G1 X31.596 Y41.08 E60.56791
G1 X31.728 Y40.169 E60.61384
G1 X31.939 Y39.273 E60.65976
G1 X32.226 Y38.398 E60.7057
G1 X32.589 Y37.552 E60.75163
G1 X33.023 Y36.74 E60.79756
G1 X33.526 Y35.969 E60.84349
G1 X34.095 Y35.245 E60.88943
G1 X34.723 Y34.573 E60.93532
G0 F6000 X35.115 Y34.751
G1 F1200 X35.796 Y34.158 E60.98037
G1 X36.528 Y33.628 E61.02546
G1 X37.303 Y33.165 E61.0705
G1 X38.116 Y32.772 E61.11555
G1 X38.961 Y32.452 E61.16063
G1 X39.83 Y32.209 E61.20565
G1 X40.718 Y32.043 E61.25072
G1 X41.857 Y31.947 E61.30774
G1 X42.178 Y31.938 E61.32376
G1 X42.464 Y31.934 E61.33803
G1 X177.159 Y31.934 E68.05799
G1 X177.305 Y31.935 E68.06528
G1 X178.003 Y31.945 E68.1001
G1 X178.905 Y31.998 E68.14518
G1 X179.798 Y32.13 E68.19022
G1 X180.676 Y32.341 E68.23527
G1 X181.532 Y32.629 E68.28033
G1 X182.359 Y32.991 E68.32537
G1 X183.151 Y33.426 E68.37045
G1 X183.902 Y33.928 E68.41552
G1 X184.605 Y34.495 E68.46057
G1 X185.255 Y35.122 E68.50563
G1 X185.847 Y35.804 E68.55069
G1 X186.377 Y36.535 E68.59573
G1 X186.839 Y37.311 E68.64079
G1 X187.232 Y38.124 E68.68584
G1 X187.55 Y38.969 E68.73089
G1 X187.793 Y39.839 E68.77595
G1 X187.958 Y40.727 E68.82101
G1 X188.053 Y41.857 E68.87759
G1 X188.062 Y42.177 E68.89356
G1 X188.066 Y42.464 E68.90788
G1 X188.066 Y177.13 E75.62639
G1 X188.065 Y177.256 E75.63268
G1 X188.056 Y177.983 E75.66895
G1 X188.005 Y178.885 E75.71402
G1 X187.874 Y179.779 E75.7591
G1 X187.665 Y180.657 E75.80413
G1 X187.379 Y181.514 E75.8492
G1 X187.018 Y182.342 E75.89427
G1 X186.586 Y183.134 E75.93928
G1 X186.085 Y183.886 E75.98436
G1 X185.519 Y184.59 E76.02942
G1 X184.894 Y185.241 E76.07445
G1 X184.213 Y185.835 E76.11953
G1 X183.482 Y186.366 E76.16461
G1 X182.708 Y186.83 E76.20963
G1 X181.895 Y187.224 E76.2547
G1 X181.051 Y187.544 E76.29973
G1 X180.181 Y187.789 E76.34483
G1 X179.294 Y187.955 E76.38985
G1 X178.143 Y188.053 E76.44748
G1 X177.822 Y188.062 E76.4635
G1 X177.536 Y188.066 E76.47777
G1 X42.841 Y188.066 E83.19773
G1 X42.709 Y188.065 E83.20432
G1 X42.011 Y188.056 E83.23914
G1 X41.11 Y188.005 E83.28417
G1 X40.216 Y187.873 E83.32925
G1 X39.338 Y187.664 E83.37428
G1 X38.481 Y187.377 E83.41937
G1 X37.654 Y187.016 E83.46439
G1 X36.861 Y186.583 E83.50946
G1 X36.11 Y186.082 E83.5545
G1 X35.406 Y185.516 E83.59957
G1 X34.755 Y184.89 E83.64463
G1 X34.162 Y184.209 E83.68968
G1 X33.632 Y183.478 E83.73473
G1 X33.168 Y182.703 E83.77979
G1 X32.774 Y181.89 E83.82486
G1 X32.454 Y181.046 E83.8699
G1 X32.21 Y180.176 E83.91498
G1 X32.044 Y179.288 E83.96005
G1 X31.947 Y178.133 E84.01787
G1 X31.938 Y177.8 E84.03449
G1 X31.934 Y177.524 E84.04826
G1 X31.934 Y42.808 E90.76927
G1 X31.935 Y42.67 E90.77616
G1 X31.944 Y42.005 E90.80934
G1 X31.996 Y41.103 E90.85441
G1 X32.128 Y40.21 E90.89945
G1 X32.338 Y39.332 E90.94449
G1 X32.625 Y38.475 E90.98958
G1 X32.987 Y37.648 E91.03462
G1 X33.42 Y36.856 E91.07965
G1 X33.922 Y36.105 E91.12472
G1 X34.489 Y35.401 E91.16981
G1 X35.115 Y34.751 E91.21484
G1 F1500 E84.71484
;MESH:6a4042c7-9034-4283-ad3f-839b41815d14.stl
G0 F6000 X42.748 Y41.469
G0 X42.748 Y42.748
G0 X76.1 Y46.269
G0 X76.142 Y76.142
G0 X76.072 Y76.072
;TYPE:WALL-INNER
G1 F1500 E91.21484
G1 F1200 X76.072 Y46.297 E92.70032
G1 X46.297 Y46.297 E94.1858
G1 X46.297 Y76.072 E95.67128
G1 X76.072 Y76.072 E97.15676
G0 F6000 X75.672 Y75.672
;TYPE:WALL-OUTER
G1 F1200 X75.672 Y46.697 E98.60233
G1 X46.697 Y46.697 E100.0479
G1 X46.697 Y75.672 E101.49346
G1 X75.672 Y75.672 E102.93903
G1 F1500 E96.43903
G0 F6000 X76.172 Y75.672
G0 X79.606 Y76.1
G0 X109.479 Y76.142
G0 X109.409 Y76.072
;TYPE:WALL-INNER
G1 F1500 E102.93903
G1 F1200 X109.409 Y46.297 E104.42451
G1 X79.634 Y46.297 E105.90999
G1 X79.634 Y76.072 E107.39548
G1 X109.409 Y76.072 E108.88096
G0 F6000 X109.009 Y75.672
;TYPE:WALL-OUTER
G1 F1200 X109.009 Y46.697 E110.32652
G1 X80.034 Y46.697 E111.77209
G1 X80.034 Y75.672 E113.21766
G1 X109.009 Y75.672 E114.66323
G0 F6000 X109.509 Y75.672
G0 X112.902 Y76.142
G0 X112.972 Y76.072
;TYPE:WALL-INNER
G1 F1200 X142.747 Y76.072 E116.14871
G1 X142.747 Y46.297 E117.63419
G1 X112.972 Y46.297 E119.11967
G1 X112.972 Y76.072 E120.60515
G0 F6000 X113.372 Y75.672
;TYPE:WALL-OUTER
G1 F1200 X142.347 Y75.672 E122.05072
G1 X142.347 Y46.697 E123.49629
G1 X113.372 Y46.697 E124.94186
G1 X113.372 Y75.672 E126.38743
G1 F1500 E119.88743
G0 F6000 X112.872 Y75.672
G0 X112.944 Y76.1
G0 X146.239 Y76.142
G0 X146.309 Y76.072
;TYPE:WALL-INNER
G1 F1500 E126.38743
G1 F1200 X176.084 Y76.072 E127.87291
G1 X176.084 Y46.297 E129.35839
G1 X146.309 Y46.297 E130.84387
G1 X146.309 Y76.072 E132.32935
G0 F6000 X146.709 Y75.672
;TYPE:WALL-OUTER
G1 F1200 X175.684 Y75.672 E133.77492
G1 X175.684 Y46.697 E135.22049
G1 X146.709 Y46.697 E136.66606
G1 X146.709 Y75.672 E138.11163
G1 F1500 E131.61163
G0 F6000 X146.209 Y75.672
G0 X146.239 Y109.479
G0 X146.309 Y109.409
;TYPE:WALL-INNER
G1 F1500 E138.11163
G1 F1200 X176.084 Y109.409 E139.59711
G1 X176.084 Y79.634 E141.08259
G1 X146.309 Y79.634 E142.56807
G1 X146.309 Y109.409 E144.05355
G0 F6000 X146.709 Y109.009
;TYPE:WALL-OUTER
G1 F1200 X175.684 Y109.009 E145.49912
G1 X175.684 Y80.034 E146.94469
G1 X146.709 Y80.034 E148.39026
G1 X146.709 Y109.009 E149.83582
G1 F1500 E143.33582
G0 F6000 X146.209 Y109.009
G0 X142.775 Y109.437
G0 X112.902 Y109.479
G0 X112.972 Y109.409
;TYPE:WALL-INNER
G1 F1500 E149.83582
G1 F1200 X142.747 Y109.409 E151.3213
G1 X142.747 Y79.634 E152.80679
G1 X112.972 Y79.634 E154.29227
G1 X112.972 Y109.409 E155.77775
G0 F6000 X113.372 Y109.009
;TYPE:WALL-OUTER
G1 F1200 X142.347 Y109.009 E157.22332
G1 X142.347 Y80.034 E158.66888
G1 X113.372 Y80.034 E160.11445
G1 X113.372 Y109.009 E161.56002
G0 F6000 X112.872 Y109.009
G0 X109.479 Y109.479
G0 X109.409 Y109.409
;TYPE:WALL-INNER
G1 F1200 X109.409 Y79.634 E163.0455
G1 X79.634 Y79.634 E164.53098
G1 X79.634 Y109.409 E166.01646
G1 X109.409 Y109.409 E167.50194
G0 F6000 X109.009 Y109.009
;TYPE:WALL-OUTER
G1 F1200 X109.009 Y80.034 E168.94751
G1 X80.034 Y80.034 E170.39308
G1 X80.034 Y109.009 E171.83865
G1 X109.009 Y109.009 E173.28422
G1 F1500 E166.78422
G0 F6000 X109.509 Y109.009
G0 X109.437 Y109.437
G0 X76.142 Y109.479
G0 X76.072 Y109.409
;TYPE:WALL-INNER
G1 F1500 E173.28422
G1 F1200 X76.072 Y79.634 E174.7697
G1 X46.297 Y79.634 E176.25518
G1 X46.297 Y109.409 E177.74066
G1 X76.072 Y109.409 E179.22614
G0 F6000 X75.672 Y109.009
;TYPE:WALL-OUTER
G1 F1200 X75.672 Y80.034 E180.67171
G1 X46.697 Y80.034 E182.11728
G1 X46.697 Y109.009 E183.56285
G1 X75.672 Y109.009 E185.00842
G1 F1500 E178.50842
G0 F6000 X76.172 Y109.009
G0 X76.142 Y176.154
G0 X76.072 Y176.084
;TYPE:WALL-INNER
G1 F1500 E185.00842
G1 F1200 X76.072 Y146.309 E186.4939
G1 X46.297 Y146.309 E187.97938
G1 X46.297 Y176.084 E189.46486
G1 X76.072 Y176.084 E190.95034
G0 F6000 X75.672 Y175.684
;TYPE:WALL-OUTER
G1 F1200 X75.672 Y146.709 E192.39591
G1 X46.697 Y146.709 E193.84148
G1 X46.697 Y175.684 E195.28705
G1 X75.672 Y175.684 E196.73261
G1 F1500 E190.23261
G0 F6000 X76.172 Y175.684
G0 X76.142 Y142.817
G0 X76.072 Y142.747
;TYPE:WALL-INNER
G1 F1500 E196.73261
G1 F1200 X76.072 Y112.972 E198.21809
G1 X46.297 Y112.972 E199.70358
G1 X46.297 Y142.747 E201.18906
G1 X76.072 Y142.747 E202.67454
G0 F6000 X75.672 Y142.347
;TYPE:WALL-OUTER
G1 F1200 X75.672 Y113.372 E204.12011
G1 X46.697 Y113.372 E205.56567
G1 X46.697 Y142.347 E207.01124
G1 X75.672 Y142.347 E208.45681
G1 F1500 E201.95681
G0 F6000 X76.172 Y142.347
G0 X79.606 Y142.775
G0 X109.479 Y142.817
G0 X109.409 Y142.747
;TYPE:WALL-INNER
G1 F1500 E208.45681
G1 F1200 X109.409 Y112.972 E209.94229
G1 X79.634 Y112.972 E211.42777
G1 X79.634 Y142.747 E212.91325
G1 X109.409 Y142.747 E214.39873
G0 F6000 X109.009 Y142.347
;TYPE:WALL-OUTER
G1 F1200 X109.009 Y113.372 E215.8443
G1 X80.034 Y113.372 E217.28987
G1 X80.034 Y142.347 E218.73544
G1 X109.009 Y142.347 E220.18101
G0 F6000 X109.509 Y142.347
G0 X112.902 Y142.817
G0 X112.972 Y142.747
;TYPE:WALL-INNER
G1 F1200 X142.747 Y142.747 E221.66649
G1 X142.747 Y112.972 E223.15197
G1 X112.972 Y112.972 E224.63745
G1 X112.972 Y142.747 E226.12293
G0 F6000 X113.372 Y142.347
;TYPE:WALL-OUTER
G1 F1200 X142.347 Y142.347 E227.5685
G1 X142.347 Y113.372 E229.01407
G1 X113.372 Y113.372 E230.45964
G1 X113.372 Y142.347 E231.90521
G1 F1500 E225.40521
G0 F6000 X112.872 Y142.347
G0 X112.944 Y142.775
G0 X146.239 Y142.817
G0 X146.309 Y142.747
;TYPE:WALL-INNER
G1 F1500 E231.90521
G1 F1200 X176.084 Y142.747 E233.39069
G1 X176.084 Y112.972 E234.87617
G1 X146.309 Y112.972 E236.36165
G1 X146.309 Y142.747 E237.84713
G0 F6000 X146.709 Y142.347
;TYPE:WALL-OUTER
G1 F1200 X175.684 Y142.347 E239.2927
G1 X175.684 Y113.372 E240.73827
G1 X146.709 Y113.372 E242.18384
G1 X146.709 Y142.347 E243.6294
G1 F1500 E237.1294
G0 F6000 X146.209 Y142.347
G0 X146.239 Y176.154
G0 X146.309 Y176.084
;TYPE:WALL-INNER
G1 F1500 E243.6294
G1 F1200 X176.084 Y176.084 E245.11489
G1 X176.084 Y146.309 E246.60037
G1 X146.309 Y146.309 E248.08585
G1 X146.309 Y176.084 E249.57133
G0 F6000 X146.709 Y175.684
;TYPE:WALL-OUTER
G1 F1200 X175.684 Y175.684 E251.0169
G1 X175.684 Y146.709 E252.46246
G1 X146.709 Y146.709 E253.90803
G1 X146.709 Y175.684 E255.3536
G1 F1500 E248.8536
G0 F6000 X146.209 Y175.684
G0 X142.775 Y176.112
G0 X112.902 Y176.154
G0 X112.972 Y176.084
;TYPE:WALL-INNER
G1 F1500 E255.3536
G1 F1200 X142.747 Y176.084 E256.83908
G1 X142.747 Y146.309 E258.32456
G1 X112.972 Y146.309 E259.81004
