;FLAVOR:Marlin
;TIME:14362
;Filament used: 20.6167m
;Layer height: 0.3
;MINX:32.579
;MINY:31.261
;MINZ:0.3
;MAXX:187.421
;MAXY:188.739
;MAXZ:18.9
;Generated with Cura_SteamEngine 4.4.1
M140 S60
M105
M190 S60
M104 S200
M105
M109 S200
M82 ;absolute extrusion mode
M201 X500.00 Y500.00 Z100.00 E5000.00 ;Setup machine max acceleration
M203 X500.00 Y500.00 Z10.00 E50.00 ;Setup machine max feedrate
M204 P500.00 R1000.00 T500.00 ;Setup Print/Retract/Travel acceleration
M205 X8.00 Y8.00 Z0.40 E5.00 ;Setup Jerk
M220 S100 ;Reset Feedrate
M221 S100 ;Reset Flowrate

G28 ;Home

G92 E0 ;Reset Extruder
G1 Z2.0 F3000 ;Move Z Axis up
G1 X10.1 Y20 Z0.28 F5000.0 ;Move to start position
G1 X10.1 Y200.0 Z0.28 F1500.0 E15 ;Draw the first line
G1 X10.4 Y200.0 Z0.28 F5000.0 ;Move to side a little
G1 X10.4 Y20 Z0.28 F1500.0 E30 ;Draw the second line
G92 E0 ;Reset Extruder
G1 Z2.0 F3000 ;Move Z Axis up

G92 E0
G92 E0
G1 F1500 E-6.5
;LAYER_COUNT:63
;LAYER:0
M106 S76.5
G0 F6000 X35.777 Y34.525 Z0.3
;TYPE:SKIRT
G1 F1500 E0
G1 F1200 X36.465 Y33.888 E0.04678
G1 X37.205 Y33.312 E0.09356
G1 X37.991 Y32.8 E0.14036
G1 X38.818 Y32.358 E0.18714
G1 X39.68 Y31.988 E0.23394
G1 X40.57 Y31.692 E0.28074
G1 X41.482 Y31.474 E0.32752
G1 X42.409 Y31.333 E0.3743
G1 X43.28 Y31.274 E0.41785
G1 X43.601 Y31.265 E0.43387
G1 X43.909 Y31.261 E0.44924
G1 X175.714 Y31.261 E7.02502
G1 X175.872 Y31.262 E7.0329
G1 X176.57 Y31.272 E7.06773
G1 X177.506 Y31.326 E7.1145
G1 X178.434 Y31.458 E7.16127
G1 X179.348 Y31.67 E7.20808
G1 X180.24 Y31.959 E7.25486
G1 X181.105 Y32.322 E7.30166
G1 X181.935 Y32.758 E7.34843
G1 X182.726 Y33.263 E7.39525
G1 X183.47 Y33.834 E7.44204
G1 X184.163 Y34.466 E7.48884
G1 X184.8 Y35.154 E7.53561
G1 X185.375 Y35.895 E7.58241
G1 X185.886 Y36.681 E7.62918
G1 X186.328 Y37.509 E7.67601
G1 X186.697 Y38.371 E7.72279
G1 X186.992 Y39.261 E7.76956
G1 X187.21 Y40.173 E7.81635
G1 X187.35 Y41.101 E7.86317
G1 X187.408 Y41.962 E7.90622
G1 X187.417 Y42.282 E7.92219
G1 X187.421 Y42.591 E7.93761
G1 X187.421 Y177.003 E14.64345
G1 X187.42 Y177.139 E14.65024
G1 X187.411 Y177.866 E14.68651
G1 X187.36 Y178.803 E14.73332
G1 X187.228 Y179.731 E14.78009
G1 X187.019 Y180.645 E14.82687
G1 X186.732 Y181.538 E14.87366
G1 X186.37 Y182.404 E14.92049
G1 X185.936 Y183.235 E14.96726
G1 X185.432 Y184.026 E15.01406
G1 X184.863 Y184.771 E15.06082
G1 X184.232 Y185.466 E15.10766
G1 X183.545 Y186.104 E15.15443
G1 X182.806 Y186.681 E15.20121
G1 X182.02 Y187.193 E15.24801
G1 X181.194 Y187.636 E15.29477
G1 X180.332 Y188.008 E15.34161
G1 X179.443 Y188.304 E15.38835
G1 X178.531 Y188.524 E15.43516
G1 X177.604 Y188.665 E15.48194
G1 X176.72 Y188.726 E15.52615
G1 X176.399 Y188.735 E15.54217
G1 X176.091 Y188.739 E15.55754
G1 X44.286 Y188.739 E22.13331
G1 X44.144 Y188.738 E22.1404
G1 X43.446 Y188.729 E22.17522
G1 X42.51 Y188.677 E22.22199
G1 X41.581 Y188.545 E22.26881
G1 X40.667 Y188.335 E22.3156
G1 X39.774 Y188.048 E22.36239
G1 X38.909 Y187.685 E22.40919
G1 X38.078 Y187.251 E22.45597
G1 X37.287 Y186.747 E22.50276
G1 X36.542 Y186.177 E22.54956
G1 X35.848 Y185.546 E22.59635
G1 X35.211 Y184.859 E22.64309
G1 X34.634 Y184.119 E22.68991
G1 X34.122 Y183.333 E22.73671
G1 X33.679 Y182.506 E22.78351
G1 X33.308 Y181.645 E22.83029
G1 X33.012 Y180.755 E22.87708
G1 X32.793 Y179.843 E22.92388
G1 X32.652 Y178.916 E22.97066
G1 X32.592 Y178.027 E23.01511
G1 X32.583 Y177.694 E23.03173
G1 X32.579 Y177.397 E23.04655
G1 X32.579 Y42.935 E29.75488
G1 X32.58 Y42.786 E29.76232
G1 X32.589 Y42.121 E29.7955
G1 X32.642 Y41.185 E29.84227
G1 X32.774 Y40.256 E29.88908
G1 X32.985 Y39.342 E29.93588
G1 X33.273 Y38.45 E29.98265
G1 X33.636 Y37.585 E30.02945
G1 X34.071 Y36.754 E30.07624
G1 X34.575 Y35.964 E30.12299
G1 X35.145 Y35.219 E30.16979
G1 X35.777 Y34.525 E30.21662
G0 F6000 X36.168 Y34.7
G1 F1200 X36.853 Y34.084 E30.26258
G1 X37.589 Y33.531 E30.30851
G1 X38.37 Y33.043 E30.35446
G1 X39.19 Y32.625 E30.40038
G1 X40.044 Y32.28 E30.44633
G1 X40.924 Y32.01 E30.49225
G1 X41.824 Y31.818 E30.53816
G1 X42.738 Y31.704 E30.58411
G1 X43.291 Y31.674 E30.61174
G1 X43.612 Y31.665 E30.62777
G1 X43.909 Y31.661 E30.64258
G1 X175.714 Y31.661 E37.21836
G1 X175.866 Y31.662 E37.22595
G1 X176.564 Y31.672 E37.26077
G1 X177.483 Y31.725 E37.3067
G1 X178.394 Y31.858 E37.35263
G1 X179.29 Y32.069 E37.39855
G1 X180.164 Y32.357 E37.44446
G1 X181.011 Y32.72 E37.49044
G1 X181.822 Y33.155 E37.53635
G1 X182.592 Y33.659 E37.58227
G1 X183.316 Y34.228 E37.62821
G1 X183.988 Y34.858 E37.67416
G1 X184.603 Y35.543 E37.72009
G1 X185.156 Y36.279 E37.76602
G1 X185.643 Y37.06 E37.81194
G1 X186.06 Y37.881 E37.85788
G1 X186.405 Y38.735 E37.90383
G1 X186.674 Y39.615 E37.94974
G1 X186.866 Y40.516 E37.9957
G1 X186.979 Y41.429 E38.0416
G1 X187.008 Y41.973 E38.06877
G1 X187.017 Y42.293 E38.08475
G1 X187.021 Y42.591 E38.09961
G1 X187.021 Y177.003 E44.80546
G1 X187.02 Y177.134 E44.81199
G1 X187.011 Y177.861 E44.84826
G1 X186.96 Y178.78 E44.89418
G1 X186.829 Y179.692 E44.94015
G1 X186.619 Y180.588 E44.98606
G1 X186.333 Y181.463 E45.03199
G1 X185.972 Y182.31 E45.07793
G1 X185.538 Y183.122 E45.12386
G1 X185.036 Y183.894 E45.1698
G1 X184.468 Y184.619 E45.21575
G1 X183.84 Y185.292 E45.26168
G1 X183.156 Y185.908 E45.3076
G1 X182.421 Y186.462 E45.35352
G1 X181.641 Y186.951 E45.39945
G1 X180.821 Y187.37 E45.44539
G1 X179.968 Y187.716 E45.49131
G1 X179.088 Y187.987 E45.53725
G1 X178.188 Y188.18 E45.58317
G1 X177.274 Y188.295 E45.62913
G1 X176.709 Y188.326 E45.65736
G1 X176.388 Y188.335 E45.67338
G1 X176.091 Y188.339 E45.6882
G1 X44.286 Y188.339 E52.26398
G1 X44.149 Y188.338 E52.27082
G1 X43.451 Y188.329 E52.30564
G1 X42.532 Y188.277 E52.35156
G1 X41.621 Y188.146 E52.39748
G1 X40.725 Y187.936 E52.44339
G1 X39.85 Y187.649 E52.48934
G1 X39.003 Y187.287 E52.53529
G1 X38.191 Y186.853 E52.58123
G1 X37.42 Y186.351 E52.62713
G1 X36.695 Y185.783 E52.67307
G1 X36.022 Y185.154 E52.71903
G1 X35.407 Y184.47 E52.76492
G1 X34.853 Y183.735 E52.81084
G1 X34.365 Y182.954 E52.85679
G1 X33.946 Y182.134 E52.90273
G1 X33.6 Y181.281 E52.94865
G1 X33.33 Y180.401 E52.99458
G1 X33.137 Y179.5 E53.04055
G1 X33.023 Y178.587 E53.08645
G1 X32.992 Y178.016 E53.11498
G1 X32.983 Y177.683 E53.1316
G1 X32.979 Y177.397 E53.14587
G1 X32.979 Y42.935 E59.85421
G1 X32.98 Y42.792 E59.86134
G1 X32.989 Y42.127 E59.89452
G1 X33.041 Y41.207 E59.94049
G1 X33.173 Y40.296 E59.98642
G1 X33.384 Y39.4 E60.03234
G1 X33.671 Y38.525 E60.07828
G1 X34.034 Y37.679 E60.12421
G1 X34.468 Y36.867 E60.17015
G1 X34.971 Y36.096 E60.21607
G1 X35.54 Y35.372 E60.26201
G1 X36.168 Y34.7 E60.3079
G0 F6000 X36.56 Y34.878
G1 F1200 X37.241 Y34.285 E60.35295
G1 X37.973 Y33.755 E60.39804
G1 X38.748 Y33.292 E60.44308
G1 X39.561 Y32.899 E60.48813
G1 X40.406 Y32.579 E60.53321
G1 X41.275 Y32.336 E60.57823
G1 X42.163 Y32.17 E60.6233
G1 X43.302 Y32.074 E60.68032
G1 X43.623 Y32.065 E60.69634
G1 X43.909 Y32.061 E60.71061
G1 X175.714 Y32.061 E67.28639
G1 X175.86 Y32.062 E67.29368
G1 X176.558 Y32.072 E67.3285
G1 X177.46 Y32.125 E67.37358
G1 X178.353 Y32.257 E67.41862
G1 X179.231 Y32.468 E67.46367
G1 X180.087 Y32.756 E67.50873
G1 X180.914 Y33.118 E67.55377
G1 X181.706 Y33.553 E67.59885
G1 X182.457 Y34.055 E67.64391
G1 X183.16 Y34.622 E67.68897
G1 X183.81 Y35.249 E67.73403
G1 X184.402 Y35.931 E67.77908
G1 X184.932 Y36.662 E67.82413
G1 X185.394 Y37.438 E67.86919
G1 X185.787 Y38.251 E67.91424
G1 X186.105 Y39.096 E67.95928
G1 X186.348 Y39.966 E68.00435
G1 X186.513 Y40.854 E68.04941
G1 X186.608 Y41.984 E68.10598
G1 X186.617 Y42.304 E68.12196
G1 X186.621 Y42.591 E68.13628
G1 X186.621 Y177.003 E74.84212
G1 X186.62 Y177.129 E74.8484
G1 X186.611 Y177.856 E74.88468
G1 X186.56 Y178.758 E74.92975
G1 X186.429 Y179.652 E74.97483
G1 X186.22 Y180.53 E75.01986
G1 X185.934 Y181.387 E75.06493
G1 X185.573 Y182.215 E75.10999
G1 X185.141 Y183.007 E75.155
G1 X184.64 Y183.759 E75.20008
G1 X184.074 Y184.463 E75.24515
G1 X183.449 Y185.114 E75.29017
G1 X182.768 Y185.708 E75.33526
G1 X182.037 Y186.239 E75.38033
G1 X181.263 Y186.703 E75.42536
G1 X180.45 Y187.097 E75.47043
G1 X179.606 Y187.417 E75.51546
G1 X178.736 Y187.662 E75.56055
G1 X177.849 Y187.828 E75.60557
G1 X176.698 Y187.926 E75.66321
G1 X176.377 Y187.935 E75.67923
G1 X176.091 Y187.939 E75.6935
G1 X44.286 Y187.939 E82.26928
G1 X44.154 Y187.938 E82.27586
G1 X43.456 Y187.929 E82.31069
G1 X42.555 Y187.878 E82.35571
G1 X41.661 Y187.746 E82.4008
G1 X40.783 Y187.537 E82.44582
G1 X39.926 Y187.25 E82.49091
G1 X39.099 Y186.889 E82.53593
G1 X38.306 Y186.456 E82.58101
G1 X37.555 Y185.955 E82.62605
G1 X36.851 Y185.389 E82.67111
G1 X36.2 Y184.763 E82.71617
G1 X35.607 Y184.082 E82.76122
G1 X35.077 Y183.351 E82.80627
G1 X34.613 Y182.576 E82.85133
G1 X34.219 Y181.763 E82.89641
G1 X33.899 Y180.919 E82.94144
G1 X33.655 Y180.049 E82.98652
G1 X33.489 Y179.161 E83.03159
G1 X33.392 Y178.006 E83.08942
G1 X33.383 Y177.673 E83.10603
G1 X33.379 Y177.397 E83.11981
G1 X33.379 Y42.935 E89.82814
G1 X33.38 Y42.797 E89.83503
G1 X33.389 Y42.132 E89.86821
G1 X33.441 Y41.23 E89.91328
G1 X33.573 Y40.337 E89.95832
G1 X33.783 Y39.459 E90.00336
G1 X34.07 Y38.602 E90.04845
G1 X34.432 Y37.775 E90.09349
G1 X34.865 Y36.983 E90.13852
G1 X35.367 Y36.232 E90.18359
G1 X35.934 Y35.528 E90.22868
G1 X36.56 Y34.878 E90.27371
G1 F1500 E83.77371
;MESH:c81f2586-4ed9-4500-a417-1c605aecdee8.stl
G0 F6000 X44.199 Y41.596
G0 X44.199 Y42.881
G0 X45.078 Y106.929
G0 X74.909 Y110.436
G0 X74.951 Y173.646
G0 X74.881 Y173.576
;TYPE:WALL-INNER
G1 F1500 E90.27371
G1 F1200 X74.881 Y143.801 E91.75919
G1 X45.106 Y143.801 E93.24467
G1 X45.106 Y173.576 E94.73015
G1 X74.881 Y173.576 E96.21563
G0 F6000 X74.481 Y173.176
;TYPE:WALL-OUTER
G1 F1200 X74.481 Y144.201 E97.6612
G1 X45.506 Y144.201 E99.10677
G1 X45.506 Y173.176 E100.55234
G1 X74.481 Y173.176 E101.9979
G1 F1500 E95.4979
G0 F6000 X74.981 Y173.176
G0 X74.951 Y140.309
G0 X74.881 Y140.239
;TYPE:WALL-INNER
G1 F1500 E101.9979
G1 F1200 X74.881 Y110.464 E103.48339
G1 X45.106 Y110.464 E104.96887
G1 X45.106 Y140.239 E106.45435
G1 X74.881 Y140.239 E107.93983
G0 F6000 X74.481 Y139.839
;TYPE:WALL-OUTER
G1 F1200 X74.481 Y110.864 E109.3854
G1 X45.506 Y110.864 E110.83096
G1 X45.506 Y139.839 E112.27653
G1 X74.481 Y139.839 E113.7221
G1 F1500 E107.2221
G0 F6000 X74.981 Y139.839
G0 X74.951 Y73.634
G0 X74.881 Y73.564
;TYPE:WALL-INNER
G1 F1500 E113.7221
G1 F1200 X74.881 Y43.789 E115.20758
G1 X45.106 Y43.789 E116.69306
G1 X45.106 Y73.564 E118.17854
G1 X74.881 Y73.564 E119.66403
G0 F6000 X74.481 Y73.164
;TYPE:WALL-OUTER
G1 F1200 X74.481 Y44.189 E121.10959
G1 X45.506 Y44.189 E122.55516
G1 X45.506 Y73.164 E124.00073
G1 X74.481 Y73.164 E125.4463
G1 F1500 E118.9463
G0 F6000 X74.981 Y73.164
G0 X74.951 Y106.971
G0 X74.881 Y106.901
;TYPE:WALL-INNER
G1 F1500 E125.4463
G1 F1200 X74.881 Y77.126 E126.93178
G1 X45.106 Y77.126 E128.41726
G1 X45.106 Y106.901 E129.90274
G1 X74.881 Y106.901 E131.38822
G0 F6000 X74.481 Y106.501
;TYPE:WALL-OUTER
G1 F1200 X74.481 Y77.526 E132.83379
G1 X45.506 Y77.526 E134.27936
G1 X45.506 Y106.501 E135.72493
G1 X74.481 Y106.501 E137.1705
G1 F1500 E130.6705
G0 F6000 X74.981 Y106.501
G0 X78.416 Y106.929
G0 X111.711 Y106.971
G0 X111.781 Y106.901
;TYPE:WALL-INNER
G1 F1500 E137.1705
G1 F1200 X141.556 Y106.901 E138.65598
G1 X141.556 Y77.126 E140.14146
G1 X111.781 Y77.126 E141.62694
G1 X111.781 Y106.901 E143.11242
G0 F6000 X112.181 Y106.501
;TYPE:WALL-OUTER
G1 F1200 X141.156 Y106.501 E144.55799
G1 X141.156 Y77.526 E146.00356
G1 X112.181 Y77.526 E147.44913
G1 X112.181 Y106.501 E148.89469
G0 F6000 X111.681 Y106.501
G0 X108.289 Y106.971
G0 X108.219 Y106.901
;TYPE:WALL-INNER
G1 F1200 X108.219 Y77.126 E150.38018
G1 X78.444 Y77.126 E151.86566
G1 X78.444 Y106.901 E153.35114
G1 X108.219 Y106.901 E154.83662
G0 F6000 X107.819 Y106.501
;TYPE:WALL-OUTER
G1 F1200 X107.819 Y77.526 E156.28219
G1 X78.844 Y77.526 E157.72776
G1 X78.844 Y106.501 E159.17332
G1 X107.819 Y106.501 E160.61889
G1 F1500 E154.11889
G0 F6000 X108.319 Y106.501
G0 X108.289 Y73.634
G0 X108.219 Y73.564
;TYPE:WALL-INNER
G1 F1500 E160.61889
G1 F1200 X108.219 Y43.789 E162.10437
G1 X78.444 Y43.789 E163.58985
G1 X78.444 Y73.564 E165.07533
G1 X108.219 Y73.564 E166.56082
G0 F6000 X107.819 Y73.164
;TYPE:WALL-OUTER
G1 F1200 X107.819 Y44.189 E168.00638
G1 X78.844 Y44.189 E169.45195
G1 X78.844 Y73.164 E170.89752
G1 X107.819 Y73.164 E172.34309
G0 F6000 X108.319 Y73.164
G0 X111.711 Y73.634
G0 X111.781 Y73.564
;TYPE:WALL-INNER
G1 F1200 X141.556 Y73.564 E173.82857
G1 X141.556 Y43.789 E175.31405
G1 X111.781 Y43.789 E176.79953
G1 X111.781 Y73.564 E178.28501
G0 F6000 X112.181 Y73.164
;TYPE:WALL-OUTER
G1 F1200 X141.156 Y73.164 E179.73058
G1 X141.156 Y44.189 E181.17615
G1 X112.181 Y44.189 E182.62172
G1 X112.181 Y73.164 E184.06729
G1 F1500 E177.56729
G0 F6000 X111.681 Y73.164
G0 X111.753 Y73.592
G0 X145.049 Y73.634
G0 X145.119 Y73.564
;TYPE:WALL-INNER
G1 F1500 E184.06729
G1 F1200 X174.894 Y73.564 E185.55277
G1 X174.894 Y43.789 E187.03825
G1 X145.119 Y43.789 E188.52373
G1 X145.119 Y73.564 E190.00921
G0 F6000 X145.519 Y73.164
;TYPE:WALL-OUTER
G1 F1200 X174.494 Y73.164 E191.45478
G1 X174.494 Y44.189 E192.90035
G1 X145.519 Y44.189 E194.34592
G1 X145.519 Y73.164 E195.79149
G1 F1500 E189.29149
G0 F6000 X145.019 Y73.164
G0 X145.049 Y106.971
G0 X145.119 Y106.901
;TYPE:WALL-INNER
G1 F1500 E195.79149
G1 F1200 X174.894 Y106.901 E197.27697
G1 X174.894 Y77.126 E198.76245
G1 X145.119 Y77.126 E200.24793
G1 X145.119 Y106.901 E201.73341
G0 F6000 X145.519 Y106.501
;TYPE:WALL-OUTER
G1 F1200 X174.494 Y106.501 E203.17898
G1 X174.494 Y77.526 E204.62455
G1 X145.519 Y77.526 E206.07011
G1 X145.519 Y106.501 E207.51568
G1 F1500 E201.01568
G0 F6000 X145.019 Y106.501
G0 X145.049 Y173.646
G0 X145.119 Y173.576
;TYPE:WALL-INNER
G1 F1500 E207.51568
G1 F1200 X174.894 Y173.576 E209.00116
G1 X174.894 Y143.801 E210.48664
G1 X145.119 Y143.801 E211.97213
G1 X145.119 Y173.576 E213.45761
G0 F6000 X145.519 Y173.176
;TYPE:WALL-OUTER
G1 F1200 X174.494 Y173.176 E214.90317
G1 X174.494 Y144.201 E216.34874
G1 X145.519 Y144.201 E217.79431
G1 X145.519 Y173.176 E219.23988
G1 F1500 E212.73988
G0 F6000 X145.019 Y173.176
G0 X145.049 Y140.309
G0 X145.119 Y140.239
;TYPE:WALL-INNER
G1 F1500 E219.23988
G1 F1200 X174.894 Y140.239 E220.72536
G1 X174.894 Y110.464 E222.21084
G1 X145.119 Y110.464 E223.69632
G1 X145.119 Y140.239 E225.1818
G0 F6000 X145.519 Y139.839
;TYPE:WALL-OUTER
G1 F1200 X174.494 Y139.839 E226.62737
G1 X174.494 Y110.864 E228.07294
G1 X145.519 Y110.864 E229.51851
G1 X145.519 Y139.839 E230.96408
G1 F1500 E224.46408
G0 F6000 X145.019 Y139.839
G0 X141.584 Y140.267
G0 X111.711 Y140.309
G0 X111.781 Y140.239
;TYPE:WALL-INNER
G1 F1500 E230.96408
G1 F1200 X141.556 Y140.239 E232.44956
G1 X141.556 Y110.464 E233.93504
G1 X111.781 Y110.464 E235.42052
G1 X111.781 Y140.239 E236.906
G0 F6000 X112.181 Y139.839
;TYPE:WALL-OUTER
G1 F1200 X141.156 Y139.839 E238.35157
G1 X141.156 Y110.864 E239.79714
G1 X112.181 Y110.864 E241.24271
G1 X112.181 Y139.839 E242.68828
G0 F6000 X111.681 Y139.839
G0 X108.289 Y140.309
G0 X108.219 Y140.239
;TYPE:WALL-INNER
G1 F1200 X108.219 Y110.464 E244.17376
G1 X78.444 Y110.464 E245.65924
G1 X78.444 Y140.239 E247.14472
G1 X108.219 Y140.239 E248.6302
G0 F6000 X107.819 Y139.839
;TYPE:WALL-OUTER
G1 F1200 X107.819 Y110.864 E250.07577
G1 X78.844 Y110.864 E251.52134
G1 X78.844 Y139.839 E252.9669
G1 X107.819 Y139.839 E254.41247
G1 F1500 E247.91247
G0 F6000 X108.319 Y139.839
G0 X108.289 Y173.646
G0 X108.219 Y173.576
;TYPE:WALL-INNER
G1 F1500 E254.41247
G1 F1200 X108.219 Y143.801 E255.89795
G1 X78.444 Y143.801 E257.38343
G1 X78.444 Y173.576 E258.86892
G1 X108.219 Y173.576 E260.3544
G0 F6000 X107.819 Y173.176
;TYPE:WALL-OUTER
